!!!!SEGMENT: pl-kk--kk-i-7--036-002_pekiel-bartlomiej--missa-et-in-terra.krn
!!!cenid: 16xx:831
!!!COM: Pękiel, Bartłomiej
!!!COM-rismid: pe30105642
!!!CDT: <1633-~1670
!!!CNT: Polish
!!!OPR: Missa
!!!OTL: Et in terra
!!!OMV: 002
!!!PDT: 1669
!!!AGN: Sacred; Mass
!!!SMS-siglum: PL-Kk
!!!SMS-shelfmark: Kk.I.7
!!!SMS-shelfwork: 036-002 M
!!!SMS-variant:
!!!SMS-altvar:
!!!NIFC-rismid: 300258113
!!!URL-scan: http://repozytorium.nifc.pl/skany/pl-kk-nut--i-7
!!!ONB-nifc: UWAGA: C (0189-0190, s.42-44), A (skan 0028-0029, s.50-52), T (0114-0115, s.49-50), B (0281-0282, s.50-51) Części Mszy: 1. Kyrie, 2. Et in terra, 3. Patrem,. 4. Sanctus, 5. Benedictus, 6. Agnus Dei
**kern	**text	**kern	**text	**kern	**text	**kern	**text
*part4	*part4	*part3	*part3	*part2	*part2	*part1	*part1
*staff4	*staff4	*staff3	*staff3	*staff2	*staff2	*staff1	*staff1
*Ibass	*	*Itenor	*	*Ialto	*	*Ivox	*
*I"[BASSVS.]	*	*I"[TENOR.]	*	*I"[ALTVS.]	*	*I"[CANTVS.]	*
*I'[B]	*	*I'[T]	*	*I'[A]	*	*I'[S]	*
*clefF4	*	*clefC4	*	*clefC3	*	*clefC1	*
*k[]	*	*k[]	*	*k[]	*	*k[]	*
*a:	*	*a:	*	*a:	*	*a:	*
*M2/1	*	*M2/1	*	*M2/1	*	*M2/1	*
*met(C|)	*	*met(C|)	*	*met(C|)	*	*met(C|)	*
=1-	=1-	=1-	=1-	=1-	=1-	=1-	=1-
!	!	!	!	!	!	!LO:TX:t=P:problem:all\right:global	!
!LO:TX:a:t=15.	!	!	!	!	!	!LO:TX:t=P:problem:kreska pseudotaktowa	!
00r	.	00r	.	1d\	ET	0r	.
.	.	.	.	2A/	in	.	.
.	.	.	.	1d\	ter-	.	.
=2-	=2-	=2-	=2-	=2-	=2-	=2-	=2-
.	.	.	.	.	.	1a\	ET
!	!	!	!	!LO:TX:t=P:problem:kreska pseudotaktowa	!	!	!
.	.	.	.	2c/	-ra	.	.
*	*	*	*	*2\right	*	*	*
.	.	.	.	2.f\	pax	2d/	in
.	.	.	.	.	.	1a\	ter-
.	.	.	.	4e\	.	.	.
=3-	=3-	=3-	=3-	=3-	=3-	=3-	=3-
00r	.	00r	.	2d\	.	.	.
!	!	!	!	!LO:TX:t=P:problem:kreska pseudotaktowa	!	!LO:TX:t=P:problem:kreska pseudotaktowa	!
.	.	.	.	2e\	.	2g/	-ra
*	*	*	*	*	*	*2\right	*
.	.	.	.	2A/	.	2.cc\	pax
.	.	.	.	2.f\	.	.	.
!	!	!	!	!	!	!LO:TX:t=P:problem:kreska pseudotaktowa	!
.	.	.	.	.	.	4b\	.
=4-	=4-	=4-	=4-	=4-	=4-	=4-	=4-
.	.	.	.	.	.	4a\	.
.	.	.	.	4e\	.	4g/	.
!	!	!	!	!LO:TX:t=P:problem:kreska pseudotaktowa	!	!	!
.	.	.	.	[y2d\	.	4f/	.
!	!	!	!	!	!	!LO:TX:t=P:problem:kreska pseudotaktowa	!
.	.	.	.	.	.	4e/	.
!	!	!	!	!LO:N:xstem:cue	!	!	!
.	.	.	.	4d\]	.	4f/	.
.	.	.	.	4c/	.	4g/	.
.	.	.	.	4c/	.	1a\	.
.	.	.	.	8B/L	.	.	.
.	.	.	.	8A/J	.	.	.
=5-	=5-	=5-	=5-	=5-	=5-	=5-	=5-
!	!	!LO:TX:t=P:problem:kreska pseudotaktowa	!	!	!	!	!
00r	.	0r	.	2.B/	.	.	.
!	!	!	!	!	!	!LO:TX:t=P:problem:kreska pseudotaktowa	!
.	.	.	.	.	.	2g/	ho-
!	!	!	!	!LO:TX:t=P:problem:kreska pseudotaktowa	!	!	!
.	.	.	.	4c/	.	.	.
.	.	.	.	4d\	.	2.f/	-mi-
.	.	.	.	4A/	.	.	.
.	.	.	.	1d\	.	.	.
.	.	.	.	.	.	4f/	-ni-
=6-	=6-	=6-	=6-	=6-	=6-	=6-	=6-
!	!	!	!	!	!	!LO:TX:t=P:problem:kreska pseudotaktowa	!
.	.	1A\	ET	.	.	1e/	-bus
!	!	!	!	!LO:TX:t=P:problem:kreska pseudotaktowa	!	!	!
.	.	.	.	2c#X/	.	.	.
.	.	2D/	in	2.d\	.	2.f/	pax
.	.	1d\	ter-	.	.	.	.
!	!	!	!	!	!	!LO:TX:t=P:problem:kreska pseudotaktowa	!
!	!	!	!	!	!	!LO:SIC:v:t=custos a	!
.	.	.	.	4e\	.	4g/	.
!	!	!	!	!	!	!LO:LB:g=original	!
=7-	=7-	=7-	=7-	=7-	=7-	=7-	=7-
0r	.	.	.	4f\	.	4a\	.
.	.	.	.	4g\	.	4b\	.
*	*	*2\right	*	*	*	*	*
!	!	!LO:TX:t=P:problem:kreska pseudotaktowa	!	!	!	!	!
.	.	2c\	.	1a\	.	4cc\	.
!	!	!	!	!	!	!LO:TX:t=P:problem:kreska pseudotaktowa	!
.	.	.	.	.	.	4a\	.
*	*	*lig	*	*	*	*	*
.	.	1B-X\	.	.	.	1.dd\	.
!	!	!	!	!LO:TX:t=P:problem:kreska pseudotaktowa	!	!	!
.	.	.	.	2g\	.	.	.
=8-	=8-	=8-	=8-	=8-	=8-	=8-	=8-
!LO:TX:t=P:problem:kreska pseudotaktowa	!	!	!	!	!	!	!
*	*	*col	*	*	*	*	*
1r	.	2.A/	.	(2f\	ho-	.	.
.	.	.	.	2e\)	.	2cc#X\	.
!	!	!	!	!	!	!LO:TX:t=P:problem:kreska pseudotaktowa	!
*	*	*Xlig	*	*	*	*	*
!	!	!LO:TX:t=P:problem:kreska pseudotaktowa	!	!	!	!	!
.	.	4A/	-ra	.	.	.	.
*	*	*Xcol	*	*	*	*	*
1D\	ET	4D/	pax	2.f\	-mi-	4dd\	pax
.	.	4E/	.	.	.	4ccny\	.
.	.	4F/	.	.	.	4a\	.
!	!	!LO:TX:t=P:problem:kreska pseudotaktowa	!	!	!	!LO:TX:t=P:problem:kreska pseudotaktowa	!
.	.	4G/	.	4f\	-ni-	4b\	.
=9-	=9-	=9-	=9-	=9-	=9-	=9-	=9-
!	!	!	!	!LO:TX:t=P:problem:kreska pseudotaktowa	!	!	!
2AA/	in	4A/	.	1e\	-b(us),	1cc\	.
.	.	4B\	.	.	.	.	.
1A\	ter-	4c\	.	.	.	.	.
!	!	!LO:TX:t=P:problem:kreska pseudotaktowa	!	!	!	!	!
!	!	!LO:SIC:v:t=custos e	!	!	!	!	!
.	.	4d\	.	.	.	.	.
!	!	!LO:LB:g=original	!	!	!	!	!
!	!	!LO:TX:t=P:problem:kreska pseudotaktowa	!	!	!	!	!
*	*	*	*	*	*	*lig	*
.	.	1e\	.	4e\	pax	1b\	.
!	!	!	!	!LO:SIC:v:t=custos B	!	!	!
.	.	.	.	4d\	.	.	.
!	!	!	!	!LO:LB:g=original	!	!	!
*2\right	*	*	*	*	*	*	*
!LO:TX:t=P:problem:kreska pseudotaktowa	!	!	!	!	!	!	!
2G\	-ra	.	.	4B/	.	.	.
!	!	!	!	!LO:TX:t=P:problem:kreska pseudotaktowa	!	!	!
.	.	.	.	4c/	.	.	.
=10-	=10-	=10-	=10-	=10-	=10-	=10-	=10-
2.F\	pax	2A/	ho-	4d\	.	1.a\	.
.	.	.	.	8c/L	.	.	.
.	.	.	.	8B/J	.	.	.
.	.	[y2d\	.	2A/	.	.	.
4E\	.	.	.	.	.	.	.
!	!	!LO:N:xstem:cue	!	!	!	!	!
2D/	.	4d\]	.	2f,\	.	.	.
.	.	4c\	.	.	.	.	.
!	!	!LO:TX:t=P:problem:kreska pseudotaktowa	!	!LO:TX:t=P:problem:kreska pseudotaktowa	!	!	!
*	*	*	*	*	*	*Xlig	*
!LO:TX:t=P:problem:kreska pseudotaktowa	!	!LO:TX:t=P:problem:kreska pseudotaktowa	!	!LO:TX:t=P:problem:kreska pseudotaktowa	!	!LO:TX:t=P:problem:kreska pseudotaktowa	!
2E\	ho-	[y2B\	.	2e\	ho-	2g/	ho-
=11-	=11-	=11-	=11-	=11-	=11-	=11-	=11-
*	*	*	*	*	*	*lig	*
!	!	!LO:N:xstem:cue	!	!	!	!	!
4AA/	.	4B\]	.	1.e\	-mi-	1cc\	.
4BB/	.	4A/	.	.	.	.	.
4C/	.	1A\	-mi-	.	.	.	.
4D/	.	.	.	.	.	.	.
*	*	*	*	*	*	*col	*
2.E\	-mi-	.	.	.	.	2.b\	-mi-
.	.	2G#X/	-ni-	2e\	-ni-	.	.
!	!	!LO:TX:t=P:problem:kreska pseudotaktowa	!	!	!	!	!
*	*	*	*	*	*	*Xlig	*
4E\	-ni-	.	.	.	.	4b\	-ni-
*	*	*	*	*	*	*Xcol	*
=12-	=12-	=12-	=12-	=12-	=12-	=12-	=12-
!LO:TX:t=P:problem:kreska pseudotaktowa	!	!	!	!LO:TX:t=P:problem:kreska pseudotaktowa	!	!LO:TX:t=P:problem:kreska pseudotaktowa	!
1AA/	-bus	2A/	-bus	1e\	-bus	1a\	-bus
!	!	!LO:TX:t=P:problem:+ nad nutą	!	!	!	!	!
.	.	1A\	bo-	.	.	.	.
!LO:TX:a:t=5.	!	!	!	!	!	!	!
00r	.	.	.	2r	.	00r	.
!	!	!LO:TX:t=P:problem:kreska pseudotaktowa	!	!	!	!	!
.	.	2G/	-nae	1e\	Bo-	.	.
=13-	=13-	=13-	=13-	=13-	=13-	=13-	=13-
.	.	2c\	Vo-	.	.	.	.
!	!	!	!	!LO:TX:t=P:problem:kreska pseudotaktowa	!	!	!
.	.	2B\	-lun-	2d\	-nae	.	.
.	.	2A/	-ta-	2f\	Vo-	.	.
!	!	!LO:TX:t=P:problem:kreska pseudotaktowa	!	!	!	!	!
.	.	[y2G/	.	2e\	.	.	.
=14-	=14-	=14-	=14-	=14-	=14-	=14-	=14-
!LO:TX:t=P:problem:kreska pseudotaktowa	!	!	!	!	!	!	!
!	!	!LO:N:xstem:cue	!	!	!	!	!
.	.	4G/]	.	4e\	-lun-	.	.
.	.	4F/	.	4d\	-ta-	.	.
.	.	4F/	.	1d\	.	.	.
.	.	8E/L	.	.	.	.	.
.	.	8D/J	.	.	.	.	.
1r	.	1E/	.	.	.	1g\	Lau-
!	!	!	!	!LO:TX:t=P:problem:kreska pseudotaktowa	!	!	!
.	.	.	.	2c#X/	.	.	.
=15-	=15-	=15-	=15-	=15-	=15-	=15-	=15-
!	!	!LO:TX:t=P:problem:kreska pseudotaktowa	!	!	!	!	!
1D\	Lau-	1D/	-tis	4d\	.	4f/	-da-
.	.	.	.	4e\	.	4g/	.
.	.	.	.	4f\	.	4a\	.
!	!	!	!	!	!	!LO:TX:t=P:problem:kreska pseudotaktowa	!
.	.	.	.	4g\	.	4b\	.
4C/	-da-	0r	.	2e,\	-tis.	4cc\	.
4D/	.	.	.	.	.	4b\	.
!	!	!	!	!LO:TX:t=P:problem:kreska pseudotaktowa	!	!	!
4E\	.	.	.	2e\	Lau-	4g/	.
!LO:TX:t=P:problem:kreska pseudotaktowa	!	!	!	!	!	!LO:TX:t=P:problem:kreska pseudotaktowa	!
4F\	.	.	.	.	.	4a\	.
=16-	=16-	=16-	=16-	=16-	=16-	=16-	=16-
!	!	!LO:TX:t=P:problem:kreska pseudotaktowa	!	!	!	!	!
2.G\	.	.	.	4d\	-da-	2.b\	.
.	.	.	.	4c/	.	.	.
.	.	.	.	4d\	.	.	.
4F\	.	.	.	4e\	.	4b\	-mus
!	!	!	!	!	!	!LO:TX:t=P:problem:oddech jako rozdzielacz słów, przeważnie na wysokości dźwięku poprzedzającego:global	!
4D/	.	1r	.	2.f\	.	2a,\	te
4E\	.	.	.	.	.	.	.
4F\	.	.	.	.	.	(1dd\	Be-
!LO:TX:t=P:problem:kreska pseudotaktowa	!	!	!	!	!	!	!
4G\	.	.	.	4f\	-mus	.	.
=17-	=17-	=17-	=17-	=17-	=17-	=17-	=17-
!	!	!	!	!LO:TX:t=P:problem:kreska pseudotaktowa	!	!	!
2.A\	-mus	2r	.	1e\	te	.	.
.	.	1A\	Be-	.	.	1cc\)	.
4A\	.	.	.	.	.	.	.
!LO:TX:t=P:problem:kreska pseudotaktowa	!	!	!	!	!	!	!
!LO:SIC:v:t=custos A	!	!	!	!	!	!	!
1E\	te	.	.	2r	.	.	.
!	!	!LO:TX:t=P:problem:kreska pseudotaktowa	!	!	!	!LO:TX:t=P:problem:kreska pseudotaktowa	!
.	.	2G/	-ne-	1e\	Be-	[y2b\	-ne-
!LO:LB:g=original	!	!	!	!	!	!	!
=18-	=18-	=18-	=18-	=18-	=18-	=18-	=18-
!	!	!	!	!	!	!LO:N:xstem:cue	!
2r	.	2G/	-di-	.	.	4b\]	.
.	.	.	.	.	.	4a\	-di-
1A\	Be-	2F/	-ci-	2d\	-ne-	4a\	-ci-
.	.	.	.	.	.	4b\	-mus
!	!	!LO:TX:t=P:problem:kreska pseudotaktowa	!	!	!	!	!
.	.	1E/	-mus	2c/	-di-	4cc\	.
.	.	.	.	.	.	4dd\	.
!LO:TX:t=P:problem:kreska pseudotaktowa	!	!	!	!	!	!	!
!LO:TX:t=P:problem:# above	!	!	!	!	!	!LO:TX:t=P:problem:kreska pseudotaktowa	!
2G#X\	-ne-	.	.	2B/	-ci-	2ee\	.
=19-	=19-	=19-	=19-	=19-	=19-	=19-	=19-
!	!	!	!	!LO:TX:t=P:problem:kreska pseudotaktowa	!	!	!
!	!	!	!	!LO:TX:t=P:problem:+ nad custos B	!	!	!
!	!	!	!	!LO:SIC:v:t=custos B	!	!	!
4A\	-di-	2A,/	te	1c\	-mus	2ee\	te
4G\	.	.	.	.	.	.	.
!	!	!	!	!	!	!LO:TX:t=P:problem:kreska pseudotaktowa	!
!	!	!LO:TX:t=P:problem:+ nad nutą	!	!	!	!LO:SIC:v:t=custos a	!
4F\	.	1A\	A-	.	.	2r	.
4E\	.	.	.	.	.	.	.
!	!	!	!	!LO:LB:g=original	!	!LO:LB:g=original	!
!	!	!	!	!LO:TX:t=P:problem:kreska pseudotaktowa	!	!LO:TX:t=P:problem:kreska pseudotaktowa	!
2D/	-ci-	.	.	1B/	te.	1r	.
!	!	!LO:TX:t=P:problem:kreska pseudotaktowa	!	!	!	!	!
!	!	!LO:TX:t=P:problem:# below	!	!	!	!	!
2E\	-mus	2G#X/	-do-	.	.	.	.
=20-	=20-	=20-	=20-	=20-	=20-	=20-	=20-
2AA/	te	4A/	-ra-	2.c/	A-	2r	.
.	.	4G/	.	.	.	.	.
!LO:TX:t=P:problem:kreska pseudotaktowa	!	!	!	!	!	!	!
2r	.	4F/	.	.	.	1a\	A-
!	!	!LO:TX:t=P:problem:kreska pseudotaktowa	!	!	!	!	!
.	.	4E/	.	4c/	-do-	.	.
1r	.	2D/	.	2.B/	-ra-	.	.
!	!	!LO:TX:t=P:problem:kreska pseudotaktowa	!	!	!	!	!
!	!	!LO:SIC:v:t=custos F	!	!	!	!LO:TX:t=P:problem:kreska pseudotaktowa	!
.	.	2E/	.	.	.	2g/	-do-
.	.	.	.	4B/	-mus	.	.
!	!	!LO:LB:g=original	!	!	!	!	!
=21-	=21-	=21-	=21-	=21-	=21-	=21-	=21-
*	*	*lig	*	*	*	*	*
!	!	!	!	!LO:TX:t=P:problem:kreska pseudotaktowa	!	!	!
2r	.	1F/	.	1A/	te	4a\	-ra-
.	.	.	.	.	.	4g/	.
1c\	A-	.	.	.	.	4f/	.
.	.	.	.	.	.	4e/	.
*	*	*col	*	*	*	*	*
.	.	2.G/	.	0r	.	1d/	.
2B\	-do-	.	.	.	.	.	.
!LO:TX:t=P:problem:kreska pseudotaktowa	!	!	!	!	!	!	!
*	*	*Xlig	*	*	*	*	*
!	!	!LO:TX:t=P:problem:kreska pseudotaktowa	!	!	!	!	!
.	.	4G/	-mus	.	.	.	.
*	*	*Xcol	*	*	*	*	*
=22-	=22-	=22-	=22-	=22-	=22-	=22-	=22-
!	!	!	!	!LO:TX:t=P:problem:kreska pseudotaktowa	!	!	!
*	*	*	*	*	*	*lig	*
4c\	-ra-	2C,/	te	.	.	1e/	.
4B\	.	.	.	.	.	.	.
4A\	.	1c\	A-	.	.	.	.
4G\	.	.	.	.	.	.	.
*	*	*	*	*	*	*col	*
2F\	-mus	.	.	1r	.	2.d/	.
2G\	.	2B\	-do-	.	.	.	.
!	!	!LO:TX:t=P:problem:kreska pseudotaktowa	!	!	!	!	!
*	*	*	*	*	*	*Xlig	*
!	!	!	!	!	!	!LO:TX:t=P:problem:kreska pseudotaktowa	!
.	.	.	.	.	.	4d/	-mus
*	*	*	*	*	*	*Xcol	*
=23-	=23-	=23-	=23-	=23-	=23-	=23-	=23-
2C/	te	4c\	-ra-	2r	.	4e/	.
.	.	4B\	.	.	.	4d/	.
!LO:TX:t=P:problem:kreska pseudotaktowa	!	!	!	!	!	!	!
2r	.	4A/	.	1e\	A-	4c/	.
!	!	!LO:TX:t=P:problem:kreska pseudotaktowa	!	!	!	!LO:TX:t=P:problem:kreska pseudotaktowa	!
.	.	4G/	.	.	.	4B/	.
00r	.	2.F/	.	.	.	2A/	te
!	!	!	!	!LO:TX:t=P:problem:kreska pseudotaktowa	!	!	!
.	.	.	.	2d\	-do-	1a\	A-
.	.	4F/	-mus	.	.	.	.
=24-	=24-	=24-	=24-	=24-	=24-	=24-	=24-
!	!	!LO:TX:t=P:problem:kreska pseudotaktowa	!	!	!	!	!
.	.	1E/,	te	2.e\	-ra-	.	.
!	!	!	!	!	!	!LO:TX:t=P:problem:kreska pseudotaktowa	!
!	!	!	!	!	!	!LO:TX:t=P:problem:# above	!
.	.	.	.	.	.	2g#X/	-do-
.	.	.	.	4d\	.	.	.
.	.	1A\	Glo-	4c/	.	2.a\	-ra-
.	.	.	.	4B/	.	.	.
.	.	.	.	1c\	.	.	.
.	.	.	.	.	.	4gny/	.
=25-	=25-	=25-	=25-	=25-	=25-	=25-	=25-
.	.	2A/	-ri-	.	.	2.f/	.
!	!	!LO:TX:t=P:problem:kreska pseudotaktowa	!	!LO:TX:t=P:problem:kreska pseudotaktowa	!	!	!
.	.	2B\	-fi-	2d\	-mus	.	.
!	!	!	!	!	!	!LO:TX:t=P:problem:kreska pseudotaktowa	!
.	.	.	.	.	.	4f/	-mus
0r	.	0c\	-ca-	1e\,	-te.	2e,/	te
.	.	.	.	.	.	1g\	Glo-
=26-	=26-	=26-	=26-	=26-	=26-	=26-	=26-
.	.	.	.	1e\	Glo-	.	.
.	.	.	.	.	.	1a\	-ri-
2r	.	1.d\	.	1.f\	-ri-	.	.
!LO:TX:t=P:problem:kreska pseudotaktowa	!	!	!	!	!	!LO:TX:t=P:problem:kreska pseudotaktowa	!
2D/	Glo-	.	.	.	.	2a\	-fi-
=27-	=27-	=27-	=27-	=27-	=27-	=27-	=27-
2D/	-ri-	.	.	.	.	2b-X\	-ca-
!LO:TX:t=P:problem:kreska pseudotaktowa	!	!	!	!	!	!	!
!LO:TX:t=P:problem:2D poprawione na 2E	!	!	!	!	!	!	!
2E\	-fi-	4c\	.	1e\	-fi-	4a\	.
!	!	!LO:TX:t=P:problem:kreska pseudotaktowa	!	!	!	!	!
!	!	!LO:SIC:v:s=4B-	!	!	!	!LO:TX:t=P:problem:+ między 4g i 1.a nad pięciolinią	!
.	.	4B\	.	.	.	4g/	.
2.F\	-ca-	1A\	.	.	.	1.a\	.
.	.	.	.	4d\	-ca-	.	.
!	!	!	!	!LO:TX:t=P:problem:kreska pseudotaktowa	!	!	!
!	!	!	!	!LO:TX:t=P:problem:+ nad kreską taktową	!	!	!
4E\	.	.	.	4e\	.	.	.
=28-	=28-	=28-	=28-	=28-	=28-	=28-	=28-
2D/	.	2d\	.	2f\	.	.	.
!LO:TX:t=P:problem:kreska pseudotaktowa	!	!	!	!	!	!	!
!LO:TX:t=P:problem:# below	!	!LO:TX:t=P:problem:kreska pseudotaktowa	!	!	!	!LO:TX:t=P:problem:kreska pseudotaktowa	!
2C#X/	-mus	2e\	.	1e\	.	2a\	-mus
2.D/	.	2.f\	.	.	.	2a,\	te.
!	!	!	!	!	!	!LO:TX:t=P:problem:kreska pseudotaktowa	!
!	!	!	!	!	!	!LO:TX:t=P:problem:+ nad kreską taktową	!
.	.	.	.	2d\	mus	[y2a\	Gra-
!	!	!LO:TX:t=P:problem:kreska pseudotaktowa	!	!	!	!	!
!LO:TX:t=P:problem:+ na pięciolinią po 4D	!	!LO:TX:t=P:problem:+ nad kreską taktową	!	!	!	!	!
4D/	.	4f\	-mus	.	.	.	.
=29-	=29-	=29-	=29-	=29-	=29-	=29-	=29-
!	!	!	!	!LO:TX:t=P:problem:kreska pseudotaktowa	!	!	!
!	!	!	!	!LO:TX:t=P:problem:+ nad ♭	!	!LO:N:xstem:cue	!
2AA,/	te	2e,\	te.	1c-X\,	-te.	4a\]	.
.	.	.	.	.	.	4a\	ti-
!	!	!	!	!	!	!LO:SIC:v:t=custos g	!
2.A\	Gra-	2.c\	Gra-	.	.	1e/	-as
.	.	.	.	2.e\	Gra-	.	.
4A\	-ti-	4c\	-ti-	.	.	.	.
!	!	!	!	!	!	!LO:LB:g=original	!
!LO:TX:t=P:problem:kreska pseudotaktowa	!	!	!	!	!	!LO:TX:t=P:problem:kreska pseudotaktowa	!
2E\	-as	1G/	-as	.	.	[y2g/	a-
.	.	.	.	4e\	-ti-	.	.
!LO:LB:g=original	!	!	!	!	!	!	!
=30-	=30-	=30-	=30-	=30-	=30-	=30-	=30-
!	!	!	!	!LO:TX:t=P:problem:kreska pseudotaktowa	!	!	!
!	!	!	!	!	!	!LO:N:xstem:cue	!
2r	.	.	.	1B/	-as	4g\]	.
.	.	.	.	.	.	4g/	-gi-
!	!	!LO:TX:t=P:problem:kreska pseudotaktowa	!	!	!	!	!
2.G\	a-	[y2B\	a-	.	.	1d/	-mus
!	!	!LO:N:xstem:cue	!	!	!	!	!
.	.	4B\]	.	2.d\	a-	.	.
4G\	-gi-	4B\	-gi-	.	.	.	.
!LO:TX:t=P:problem:kreska pseudotaktowa	!	!LO:TX:t=P:problem:kreska pseudotaktowa	!	!	!	!	!
2D/	-mus	2d\	-mus	.	.	1f/	ti-
.	.	.	.	4d\	-gi-	.	.
=31-	=31-	=31-	=31-	=31-	=31-	=31-	=31-
1B-X\	ti-	(1.d\	ti-	2G,/	-mus	.	.
.	.	.	.	2g\	a-	4e/	.
!	!	!	!	!	!	!LO:TX:t=P:problem:kreska pseudotaktowa	!
.	.	.	.	.	.	4d/	.
1A\	-bi	.	.	2f\	-gi-	1.a\	-bi
!	!	!LO:TX:t=P:problem:kreska pseudotaktowa	!	!	!	!	!
!	!	!LO:TX:t=P:problem:# above	!	!LO:TX:t=P:problem:kreska pseudotaktowa	!	!	!
!	!	!LO:SIC:v:t=custos d	!	!LO:SIC:v:t=custos f	!	!	!
.	.	2c#X\)	.	2e\	-mus	.	.
!	!	!LO:LB:g=original	!	!LO:LB:g=original	!	!	!
=32-	=32-	=32-	=32-	=32-	=32-	=32-	=32-
!	!	!LO:TX:t=P:problem:kreska pseudotaktowa	!	!	!	!	!
1D\	prop-	1d\	-bi	1f\	ti-	.	.
.	.	.	.	.	.	1dd\	prop-
!	!	!	!	!LO:TX:t=P:problem:kreska pseudotaktowa	!	!	!
2AA/	-ter	2r	.	1e\	-bi	.	.
!	!	!LO:TX:t=P:problem:kreska pseudotaktowa	!	!	!	!LO:TX:t=P:problem:kreska pseudotaktowa	!
(1A\	ma-	2A/	prop-	.	.	2cc\	-ter
=33-	=33-	=33-	=33-	=33-	=33-	=33-	=33-
*	*	*	*	*	*	*lig	*
.	.	2E/	-ter	1e\	prop-	1b\	ma-
!LO:TX:t=P:problem:kreska pseudotaktowa	!	!	!	!	!	!	!
2G\)	.	(1e\	ma-	.	.	.	.
!	!	!	!	!	!	!LO:TX:t=P:problem:kreska pseudotaktowa	!
1F\	.	.	.	2A/	-ter	1a\	.
.	.	2d\	.	1a\	ma-	.	.
!	!	!LO:TX:t=P:problem:kreska pseudotaktowa	!	!	!	!	!
*	*	*	*	*	*	*Xlig	*
=34-	=34-	=34-	=34-	=34-	=34-	=34-	=34-
!LO:TX:t=P:problem:kreska pseudotaktowa	!	!	!	!	!	!	!
1E\	-gnam	2c\	.	.	.	2e/	.
!	!	!	!	!LO:TX:t=P:problem:kreska pseudotaktowa	!	!	!
.	.	2B\)	.	2g\	.	1ee\	.
!	!	!LO:TX:t=P:problem:kreska pseudotaktowa	!	!	!	!	!
*	*	*	*	*lig	*	*	*
2r	.	1A\	-gnam	1f\	.	.	.
!	!	!	!	!	!	!LO:TX:t=P:problem:kreska pseudotaktowa	!
2.D/	glo-	.	.	.	.	2dd\	.
=35-	=35-	=35-	=35-	=35-	=35-	=35-	=35-
!	!	!	!	!	!	!LO:TX:t=P:problem:kreska pseudotaktowa	!
.	.	2r	.	1e\	.	1ee\	-gnam
4D/	-ri-	.	.	.	.	.	.
2C#X/	-am	2.A/	glo-	.	.	.	.
!LO:TX:t=P:problem:kreska pseudotaktowa	!	!	!	!	!	!	!
*	*	*	*	*Xlig	*	*	*
2D/	tu-	.	.	2f\	-gna(m)	1r	.
.	.	4A/	-ri-	.	.	.	.
!	!	!LO:TX:t=P:problem:kreska pseudotaktowa	!	!	!	!	!
2E\	.	2G#X/	-am	2.e\	glo-	.	.
=36-	=36-	=36-	=36-	=36-	=36-	=36-	=36-
*lig	*	*	*	*	*	*	*
!	!	!	!	!	!	!LO:TX:t=P:problem:+ nad 2r	!
1F\	.	2.A/	tu-	.	.	2r	.
.	.	.	.	4e\	-ri-	.	.
!	!	!	!	!LO:TX:t=P:problem:kreska pseudotaktowa	!	!	!
!	!	!	!	!LO:TX:t=P:problem:+ nad kreską taktową	!	!	!
.	.	.	.	2d\	-am	2.a\	glo-
.	.	4B\	.	.	.	.	.
*col	*	*	*	*	*	*	*
2.E\	.	2c\	.	(1.e\	tu-	.	.
.	.	.	.	.	.	4a\	-ri-
.	.	[y2B\	.	.	.	2g#X/	-am
!	!	!LO:TX:t=P:problem:kreska pseudotaktowa	!	!	!	!LO:TX:t=P:problem:kreska pseudotaktowa	!
*Xlig	*	*	*	*	*	*	*
!LO:TX:t=P:problem:kreska pseudotaktowa	!	!	!	!	!	!	!
4D/	.	.	.	.	.	.	.
*Xcol	*	*	*	*	*	*	*
=37-	=37-	=37-	=37-	=37-	=37-	=37-	=37-
!	!	!LO:N:xstem:cue	!	!	!	!	!
2C/	.	4B\]	.	.	.	4cc\	tu-
.	.	4A/	.	.	.	4b\	.
!	!	!	!	!	!	!LO:TX:t=P:problem:kreska pseudotaktowa	!
4D/	.	1A\	.	2f\)	.	2a\	.
!LO:TX:t=P:problem:kreska pseudotaktowa	!	!	!	!	!	!	!
4C/	.	.	.	.	.	.	.
4BB/	.	.	.	2d\	-am.	1b\	.
4AA/	.	.	.	.	.	.	.
2BB/	.	2G#X/	.	2.d\	Do-	.	.
=38-	=38-	=38-	=38-	=38-	=38-	=38-	=38-
!	!	!LO:TX:t=P:problem:kreska pseudotaktowa	!	!	!	!	!
!LO:TX:t=P:problem:kreska pseudotaktowa	!	!LO:TX:t=P:problem:+ nad kreską taktową	!	!	!	!	!
1AA/	-am	1A\	-am	.	.	2e,/	-am
.	.	.	.	4d\	-mi-	.	.
!	!	!	!	!LO:TX:t=P:problem:kreska pseudotaktowa	!	!	!
!	!	!	!	!LO:TX:t=P:problem:# above	!	!	!
.	.	.	.	2c#X/	-ne	2.a\	Do-
!LO:TX:t=P:problem:+ nad 00r	!	!	!	!	!	!	!
00r	.	0r	.	2d\	De-	.	.
.	.	.	.	.	.	4a\	-mi-
!	!	!	!	!	!	!LO:TX:t=P:problem:kreska pseudotaktowa	!
!	!	!	!	!	!	!LO:TX:t=P:problem:# above	!
.	.	.	.	2B/	-us	2g#X/	-ne
=39-	=39-	=39-	=39-	=39-	=39-	=39-	=39-
!	!	!LO:TX:t=P:problem:kreska pseudotaktowa	!	!	!	!	!
.	.	.	.	2c#X/	Rex	2a\	De-
!	!	!	!	!LO:TX:t=P:problem:kreska pseudotaktowa	!	!	!
.	.	.	.	2d\	cae-	2f#X/	-us
.	.	1r	.	2e\	-le-	2g/	Rex
!	!	!	!	!	!	!LO:TX:t=P:problem:kreska pseudotaktowa	!
.	.	.	.	2f#X\	.	2a\	cae-
=40-	=40-	=40-	=40-	=40-	=40-	=40-	=40-
.	.	1G/	De-	4g\	.	1b\	-le-
.	.	.	.	4d\	.	.	.
.	.	.	.	1g\	.	.	.
!	!	!	!	!	!	!LO:TX:t=P:problem:kreska pseudotaktowa	!
!	!	!	!	!	!	!LO:TX:t=P:problem:+ nad custos a	!
!	!	!	!	!	!	!LO:SIC:v:t=custos a	!
1D\	De-	2D/	-us	.	.	1a\	-ſtis
!	!	!	!	!LO:TX:t=P:problem:kreska pseudotaktowa	!	!	!
!	!	!LO:TX:t=P:problem:kreska pseudotaktowa	!	!LO:TX:t=P:problem:+ nad kreską taktową	!	!	!
.	.	[y2d\	Pa-	2f\	.	.	.
!	!	!	!	!	!	!LO:LB:g=original	!
=41-	=41-	=41-	=41-	=41-	=41-	=41-	=41-
!	!	!LO:N:xstem:cue	!	!	!	!	!
2AA/	-us	4d\]	.	1e\,	-ſtis	1a\	De-
.	.	4d\	-ter	.	.	.	.
!LO:TX:t=P:problem:kreska pseudotaktowa	!	!	!	!	!	!	!
2.A\	Pa-	2c\	o-	.	.	.	.
.	.	2.B\	-mni-	1e\	De-	2e/	-us
4A\	-ter	.	.	.	.	.	.
!LO:TX:t=P:problem:kreska pseudotaktowa	!	!	!	!	!	!	!
!LO:SIC:v:t=custos A	!	!	!	!	!	!	!
!LO:TX:t=P:problem:# above	!	!	!	!	!	!LO:TX:t=P:problem:kreska pseudotaktowa	!
2G#X\	o-	.	.	.	.	[y2ee\	Pa-
.	.	4B\	-po-	.	.	.	.
!LO:LB:g=original	!	!	!	!	!	!	!
=42-	=42-	=42-	=42-	=42-	=42-	=42-	=42-
!	!	!LO:TX:t=P:problem:kreska pseudotaktowa	!	!	!	!	!
!	!	!LO:TX:t=P:problem:+ nad kreską taktową	!	!	!	!LO:N:xstem:cue	!
2.A\	-mni-	0c\	-tens	2A/	-us	4ee\]	.
.	.	.	.	.	.	4dd\	.
!	!	!	!	!LO:TX:t=P:problem:kreska pseudotaktowa	!	!	!
.	.	.	.	2.a\	Pa-	4cc\	.
!LO:TX:t=P:problem:kreska pseudotaktowa	!	!	!	!	!	!	!
4G\	.	.	.	.	.	4b\	.
4F\	.	.	.	.	.	1.a\	.
!	!	!	!	!LO:SIC:v:t=custos f	!	!	!
4G\	.	.	.	4g\	.	.	.
!	!	!	!	!LO:LB:g=original	!	!	!
4A\	.	.	.	1f\	.	.	.
!LO:TX:t=P:problem:kreska pseudotaktowa	!	!	!	!	!	!	!
4B\	.	.	.	.	.	.	.
=43-	=43-	=43-	=43-	=43-	=43-	=43-	=43-
*lig	*	*	*	*	*	*	*
1c\	.	0r	.	.	.	.	.
!	!	!	!	!	!	!LO:TX:t=P:problem:kreska pseudotaktowa	!
.	.	.	.	2.e\	-ter	[y2g/	.
!LO:TX:t=P:problem:♭ above	!	!	!	!	!	!	!
*col	*	*	*	*	*	*	*
!	!	!	!	!	!	!LO:N:xstem:cue	!
2.B-X\	.	.	.	.	.	4g\]	.
.	.	.	.	4d\	o-	4f/	.
.	.	.	.	1d\	-mni-	4e,/	-ter
*Xlig	*	*	*	*	*	*	*
!LO:TX:t=P:problem:kreska pseudotaktowa	!	!	!	!	!	!LO:TX:t=P:problem:kreska pseudotaktowa	!
4B-\	po-	.	.	.	.	4d/	o-
*Xcol	*	*	*	*	*	*	*
=44-	=44-	=44-	=44-	=44-	=44-	=44-	=44-
2A\	-tens	2.A/	Do-	.	.	2.e/	-mni-
!	!	!	!	!LO:TX:t=P:problem:# above	!	!	!
2.A\	Do-	.	.	2c#X/	-po-	.	.
!	!	!LO:TX:t=P:problem:kreska pseudotaktowa	!	!	!	!	!
.	.	4A/	-mi-	.	.	4e/	-po-
.	.	2D,/	-ne	0d\	-tens.	2d/	-tens
4G\	-mi-	.	.	.	.	.	.
!LO:TX:t=P:problem:kreska pseudotaktowa	!	!	!	!	!	!	!
!LO:TX:t=P:problem:# above	!	!	!	!	!	!LO:TX:t=P:problem:kreska pseudotaktowa	!
2F#X\	-ne	(2.d\	Fi-	.	.	2r	.
=45-	=45-	=45-	=45-	=45-	=45-	=45-	=45-
!	!	!	!	!LO:TX:t=P:problem:kreska pseudotaktowa	!	!	!
1G\	fi-	.	.	.	.	2.b\	Do-
.	.	4c\	.	.	.	.	.
!	!	!LO:TX:t=P:problem:kreska pseudotaktowa	!	!	!	!	!
!	!	!LO:SIC:v:t=custos c	!	!	!	!	!
.	.	2B\)	-li	.	.	.	.
.	.	.	.	.	.	4a\	-mi-
!	!	!LO:LB:g=original	!	!	!	!	!
2E\	-li	1c\	V-	2r	.	2g/	-ne
!	!	!	!	!	!	!LO:TX:t=P:problem:kreska pseudotaktowa	!
1F\	V-	.	.	2.a\	Fi-	[y2a\	Fi-
=46-	=46-	=46-	=46-	=46-	=46-	=46-	=46-
!	!	!	!	!	!	!LO:N:xstem:cue	!
.	.	2A/	-ni-	.	.	4a\]	.
.	.	.	.	4g\	-li	4a\	-li
!LO:TX:t=P:problem:kreska pseudotaktowa	!	!LO:TX:t=P:problem:+ above	!	!	!	!LO:TX:t=P:problem:+ pod tekstem	!
2D/	-ni-	2.B\	-ge-	4f\	V-	2.dd\	V-
!	!	!	!	!LO:TX:t=P:problem:kreska pseudotaktowa	!	!	!
!	!	!	!	!LO:TX:t=P:problem:+ nad kreską taktową	!	!	!
.	.	.	.	4f\	-ni-	.	.
2.E\	-ge-	.	.	2.e\	-ge-	.	.
.	.	4B\	-ni-	.	.	4cc\	-ni-
!	!	!LO:TX:t=P:problem:kreska pseudotaktowa	!	!	!	!	!
.	.	2G/	-te	.	.	1cc\	-ge-
4F\	.	.	.	4e\	-ni-	.	.
=47-	=47-	=47-	=47-	=47-	=47-	=47-	=47-
2.G\	ni-	1r	.	2.d,\	-te	.	.
!	!	!	!	!	!	!LO:TX:t=P:problem:kreska pseudotaktowa	!
.	.	.	.	.	.	2b\	-ni-
!	!	!	!	!LO:TX:t=P:problem:kreska pseudotaktowa	!	!	!
4G\	-te	.	.	4d\	Je-	.	.
!LO:TX:t=P:problem:kreska pseudotaktowa	!	!	!	!	!	!	!
!LO:TX:t=P:problem:+ nad kreską taktową	!	!	!	!	!	!	!
1C/	.	0c\	Je-	1e\	-ſu	2cc\	-te
.	.	.	.	.	.	1g\	Je-
=48-	=48-	=48-	=48-	=48-	=48-	=48-	=48-
00r	.	.	.	1e\	Je-	.	.
.	.	.	.	.	.	1a\	-ſu
!	!	!LO:TX:t=P:problem:kreska pseudotaktowa	!	!LO:TX:t=P:problem:kreska pseudotaktowa	!	!	!
.	.	1d\	-su	1f\	-ſu	.	.
!	!	!	!	!	!	!LO:TX:t=P:problem:kreska pseudotaktowa	!
.	.	.	.	.	.	[y2b\	Chri-
=49-	=49-	=49-	=49-	=49-	=49-	=49-	=49-
!	!	!	!	!	!	!LO:N:xstem:cue	!
.	.	4d\	Chri-	4f\	Chri-	4b\]	.
.	.	4c\	.	4e\	.	4a\	.
.	.	4c\	.	4e\	.	1a\	.
.	.	8B-X\L	.	8d\L	.	.	.
!	!	!	!	!LO:TX:t=P:problem:kreska pseudotaktowa	!	!	!
.	.	8A\J	.	8c\J	.	.	.
.	.	1B-X\	.	1.d\	.	.	.
!	!	!	!	!	!	!LO:TX:t=P:problem:kreska pseudotaktowa	!
.	.	.	.	.	.	2g/	.
=50-	=50-	=50-	=50-	=50-	=50-	=50-	=50-
!	!	!LO:TX:t=P:problem:kreska pseudotaktowa	!	!	!	!	!
00r	.	1A\	-ſte	.	.	2a,\	-ſte
!	!	!	!	!	!	!LO:TX:t=P:problem:kreska pseudotaktowa	!
.	.	.	.	2c/	.	2a\	Do-
.	.	00r	.	2d,\	-ſte	2a\	-mi-
!	!	!	!	!LO:TX:t=P:problem:kreska pseudotaktowa	!	!	!
.	.	.	.	2d\	Do-	2a\	-ne
=51-	=51-	=51-	=51-	=51-	=51-	=51-	=51-
!	!	!	!	!	!	!LO:TX:t=P:problem:kreska pseudotaktowa	!
!	!	!	!	!	!	!LO:SIC:v:t=custos g	!
.	.	.	.	2d\	-mi-	1b\	De-
.	.	.	.	2d\	-ne	.	.
!	!	!	!	!	!	!LO:PB:g=original	!
.	.	.	.	2e\	De-	2g/	-us
!	!	!	!	!LO:TX:t=P:problem:kreska pseudotaktowa	!	!	!
.	.	.	.	2c/	-(us)	4cc\	A-
!	!	!	!	!	!	!LO:TX:t=P:problem:kreska pseudotaktowa	!
.	.	.	.	.	.	4b\	.
=52-	=52-	=52-	=52-	=52-	=52-	=52-	=52-
!	!	!LO:TX:t=P:problem:kreska pseudotaktowa	!	!	!	!	!
00r	.	.	.	4f\	a-	4a\	.
.	.	.	.	4e\	.	4g/	.
.	.	.	.	4d/	.	4f/	.
!	!	!	!	!LO:TX:t=P:problem:kreska pseudotaktowa	!	!LO:TX:t=P:problem:kreska pseudotaktowa	!
.	.	.	.	4c/	.	4e/	.
!	!	!	!	!LO:SIC:v:t=custos f	!	!	!
.	.	1r	.	2d\	.	4f/	.
.	.	.	.	.	.	4d/	.
!	!	!	!	!LO:LB:g=original	!	!	!
.	.	.	.	1f\	.	1dd\	.
=53-	=53-	=53-	=53-	=53-	=53-	=53-	=53-
.	.	1A\	Do-	.	.	.	.
.	.	.	.	4e\	.	4cc#X\	.
!	!	!	!	!LO:TX:t=P:problem:kreska pseudotaktowa	!	!LO:TX:t=P:problem:kreska pseudotaktowa	!
.	.	.	.	4d\	.	4b\	.
.	.	2A/	-mi-	4e\	.	2cc#X\	.
.	.	.	.	4A/	.	.	.
!	!	!LO:TX:t=P:problem:kreska pseudotaktowa	!	!	!	!LO:TX:t=P:problem:kreska pseudotaktowa	!
.	.	2A/	-ne	2a\	.	2cc#\	-gnus
=54-	=54-	=54-	=54-	=54-	=54-	=54-	=54-
!LO:TX:t=P:problem:kreska pseudotaktowa	!	!	!	!	!	!	!
0r	.	2B\	De-	2d\	-gnus	4dd\	De-
.	.	.	.	.	.	4cc\	.
.	.	2G/	-us	4g\	De-	4b\	.
!	!	!	!	!LO:TX:t=P:problem:kreska pseudotaktowa	!	!LO:TX:t=P:problem:kreska pseudotaktowa	!
.	.	.	.	4f\	.	4a\	.
.	.	4c\	A-	4e\	.	2g/	.
.	.	4B\	.	4d\	.	.	.
.	.	4A/	.	4c/	.	2cc\	.
!	!	!LO:TX:t=P:problem:kreska pseudotaktowa	!	!	!	!	!
.	.	4G/	.	8d\L	.	.	.
!	!	!	!	!LO:TX:t=P:problem:kreska pseudotaktowa	!	!	!
.	.	.	.	8e\J	.	.	.
=55-	=55-	=55-	=55-	=55-	=55-	=55-	=55-
2r	.	4F/	.	1f\	-i	2a,\	-i
.	.	4D/	.	.	.	.	.
!LO:TX:t=P:problem:kreska pseudotaktowa	!	!	!	!	!	!LO:TX:t=P:problem:kreska pseudotaktowa	!
2D/	Do-	2.d\	.	.	.	2f/	Do-
2D/	-mi-	.	.	4f\	a-	2f/	-mi-
.	.	4c\	.	4e\	.	.	.
2D/	-ne	4B\	.	4d\	.	2f/	-ne
!	!	!LO:TX:t=P:problem:kreska pseudotaktowa	!	!LO:TX:t=P:problem:kreska pseudotaktowa	!	!	!
.	.	4A/	.	4c/	.	.	.
=56-	=56-	=56-	=56-	=56-	=56-	=56-	=56-
2E\	De-	2G/	.	2B/	.	2g/	De-
!LO:TX:t=P:problem:kreska pseudotaktowa	!	!LO:TX:t=P:problem:kreska pseudotaktowa	!	!	!	!LO:TX:t=P:problem:kreska pseudotaktowa	!
2C/	-us	2c\	.	2e\	.	2g/	-us
4G\	A-	1.B\	.	2d\	-gn(us)	2.g/	A-
4F\	.	.	.	.	.	.	.
4E\	.	.	.	1e\	De-	.	.
!LO:TX:t=P:problem:kreska pseudotaktowa	!	!	!	!	!	!	!
4D/	.	.	.	.	.	8a\L	.
.	.	.	.	.	.	8b\J	.
=57-	=57-	=57-	=57-	=57-	=57-	=57-	=57-
4C/	.	.	.	.	.	1cc\	.
!LO:SIC:v:t=custos A	!	!	!	!	!	!	!
4AA/	.	.	.	.	.	.	.
!LO:LB:g=original	!	!LO:TX:t=P:problem:kreska pseudotaktowa	!	!LO:TX:t=P:problem:kreska pseudotaktowa	!	!	!
1A\	.	2A/	-gnus	2e\	-i	.	.
*	*	*lig	*	*	*	*	*
!	!	!	!	!	!	!LO:TX:t=P:problem:kreska pseudotaktowa	!
.	.	1B\	De-	0e\	Fi-	1b\	-gnus
!LO:TX:t=P:problem:kreska pseudotaktowa	!	!	!	!	!	!	!
2G#X\	-gnus	.	.	.	.	.	.
=58-	=58-	=58-	=58-	=58-	=58-	=58-	=58-
!	!	!LO:SIC:v:t=custos B	!	!	!	!	!
1A\	De-	1c\	.	.	.	1a\	De-
*	*	*Xlig	*	*	*	*	*
!	!	!LO:LB:g=original	!	!	!	!	!
!LO:TX:t=P:problem:kreska pseudotaktowa	!	!LO:TX:t=P:problem:kreska pseudotaktowa	!	!	!	!LO:TX:t=P:problem:kreska pseudotaktowa	!
1E\	-i	1B\,	-i	2e\	-li-	1g\	-i
!	!	!	!	!LO:TX:t=P:problem:kreska pseudotaktowa	!	!	!
.	.	.	.	[y2e\	-us	.	.
=59-	=59-	=59-	=59-	=59-	=59-	=59-	=59-
!	!	!	!	!LO:N:xstem:cue	!	!	!
2.A\	Fi-	2.c\	Fi-	4e\]	.	1r	.
.	.	.	.	4d\	.	.	.
.	.	.	.	1c\	.	.	.
4G\	-li-	4B\	-li-	.	.	.	.
!LO:TX:t=P:problem:kreska pseudotaktowa	!	!LO:TX:t=P:problem:kreska pseudotaktowa	!	!	!	!	!
1F\	-us	1A\	-us	.	.	2.a\	Fi-
!	!	!	!	!LO:TX:t=P:problem:kreska pseudotaktowa	!	!	!
.	.	.	.	[y2f\	Pa-	.	.
!	!	!	!	!	!	!LO:TX:t=P:problem:kreska pseudotaktowa	!
.	.	.	.	.	.	4g/	-li-
=60-	=60-	=60-	=60-	=60-	=60-	=60-	=60-
!	!	!	!	!LO:N:xstem:cue	!	!	!
2.B-X\	Pa-	(1d\	Pa-	4f\]	.	2f/	-us
.	.	.	.	4e\	.	.	.
!	!	!	!	!LO:TX:t=P:problem:niekompletny takt	!	!	!
.	.	.	.	2.f\yy	.	2.b-X\	Pa-
4A\	.	.	.	.	.	.	.
1G\	.	4d\	.	.	.	.	.
.	.	4c\)	.	4e\yy	.	4a\	.
!	!	!LO:TX:t=P:problem:kreska pseudotaktowa	!	!	!	!LO:TX:t=P:problem:kreska pseudotaktowa	!
.	.	2B-X\	.	2.e\	.	[y2g/	.
=61-	=61-	=61-	=61-	=61-	=61-	=61-	=61-
!LO:TX:t=P:problem:kreska pseudotaktowa	!	!	!	!	!	!LO:N:xstem:cue	!
0A\	.	0A\	.	.	.	4g\]	.
.	.	.	.	4d\	.	4f/	.
.	.	.	.	1d\	.	4f/	.
.	.	.	.	.	.	8e/L	.
.	.	.	.	.	.	8d/J	.
!	!	!	!	!	!	!LO:TX:t=P:problem:# above	!
.	.	.	.	.	.	1e#X/	.
!	!	!	!	!LO:TX:t=P:problem:kreska pseudotaktowa	!	!	!
!	!	!	!	!LO:TX:t=P:problem:# below	!	!	!
.	.	.	.	2c#X/	.	.	.
=62-	=62-	=62-	=62-	=62-	=62-	=62-	=62-
!	!	!	!	!	!	!LO:TX:t=P:problem:brak kreski taktowej	!
!	!	!LO:N:vis=1	!	!	!	!LO:TX:t=P:problem:# below	!
0D\;<	-tris.	0A\;<	-tris	0d\	-tris	0f#X/;	-tris
!	!	!	!	!LO:PB:g=original	!	!LO:LB:g=original	!
=63||-	=63||-	=63||-	=63||-	=63||-	=63||-	=63||-	=63||-
*M2/1	*	*M2/1	*	*M2/1	*	*M2/1	*
*met(C|)	*	*met(C|)	*	*met(C|)	*	*met(C|)	*
00r	.	1d\	QVi	1f\	QVi	1a\	QVi
.	.	2d\	tol-	2f\	tol-	0a\	tol-
!	!	!LO:TX:t=P:problem:# above	!	!	!	!	!
.	.	4c#X\	.	4e\	.	.	.
!	!	!LO:TX:t=P:problem:kreska pseudotaktowa	!	!LO:TX:t=P:problem:kreska pseudotaktowa	!	!	!
.	.	4B\	.	4d\	.	.	.
=64-	=64-	=64-	=64-	=64-	=64-	=64-	=64-
!	!	!	!	!	!	!LO:TX:t=P:problem:kreska pseudotaktowa	!
.	.	2c#X\	.	2e\	.	.	.
.	.	4d\	.	1f\	-lis	.	.
.	.	4cny\	.	.	.	.	.
.	.	4B-X\	.	.	.	2d/	-lis
.	.	4A/	.	.	.	.	.
!	!	!	!	!LO:TX:t=P:problem:kreska pseudotaktowa	!	!	!
.	.	2B-\	.	2g\	pec-	2dd\	pec-
=65-	=65-	=65-	=65-	=65-	=65-	=65-	=65-
!	!	!LO:TX:t=P:problem:kreska pseudotaktowa	!	!	!	!	!
00r	.	1A\	-lis	2f\	-ca-	2dd\	-ca-
!	!	!	!	!LO:TX:t=P:problem:kreska pseudotaktowa	!	!LO:TX:t=P:problem:kreska pseudotaktowa	!
.	.	.	.	2e\	-ta	2cc\	-ta
.	.	2r	.	4d\	mun-	2b-X\	mun-
.	.	.	.	4e\	.	.	.
!	!	!LO:TX:t=P:problem:kreska pseudotaktowa	!	!	!	!	!
.	.	2d\	pec-	4f\	.	4a\	.
.	.	.	.	4e\	.	4g\	.
=66-	=66-	=66-	=66-	=66-	=66-	=66-	=66-
.	.	2d\	-ca-	4f\	.	1.a\	.
.	.	.	.	4e\	.	.	.
.	.	2c\	-ta	4e\	.	.	.
.	.	.	.	8d\L	.	.	.
!	!	!	!	!LO:TX:t=P:problem:kreska pseudotaktowa	!	!	!
.	.	.	.	8c\J	.	.	.
.	.	1B-X\	mun-	1d\	.	.	.
!	!	!	!	!	!	!LO:TX:t=P:problem:kreska pseudotaktowa	!
.	.	.	.	.	.	2g/	.
=67-	=67-	=67-	=67-	=67-	=67-	=67-	=67-
!	!	!LO:TX:t=P:problem:kreska pseudotaktowa	!	!	!	!	!
00r	.	1A\	-di	2c,/	-di	2a,\	-di
.	.	.	.	1f\	Mi-	1a\	Mi-
.	.	1.c\	Mi-	.	.	.	.
!	!	!	!	!LO:TX:t=P:problem:kreska pseudotaktowa	!	!LO:TX:t=P:problem:kreska pseudotaktowa	!
.	.	.	.	2e\	-ſe-	2g/	-ſe-
=68-	=68-	=68-	=68-	=68-	=68-	=68-	=68-
.	.	.	.	2e\	-re-	1.g\	-re-
!	!	!LO:TX:t=P:problem:kreska pseudotaktowa	!	!	!	!	!
!	!	!LO:SIC:v:t=custos B	!	!	!	!	!
.	.	2B-X\	-ſe-	(1d\	-re	.	.
!	!	!LO:PB:g=original	!	!	!	!	!
.	.	2B-X\	-re-	.	.	.	.
!	!	!	!	!LO:TX:t=P:problem:kreska pseudotaktowa	!	!LO:TX:t=P:problem:kreska pseudotaktowa	!
.	.	2A/	-re	2c/)	.	2f#X/	-re
=69-	=69-	=69-	=69-	=69-	=69-	=69-	=69-
!LO:TX:t=P:problem:kreska pseudotaktowa	!	!	!	!	!	!	!
1r	.	(2G/	no-	2B-X/	no-	2g/	no-
!	!	!LO:TX:t=P:problem:kreska pseudotaktowa	!	!	!	!	!
.	.	2F#X/)	.	2A/	.	2.a\	.
!	!	!	!	!LO:TX:t=P:problem:kreska pseudotaktowa	!	!	!
2r	.	1G/	.	1B-X/	.	.	.
.	.	.	.	.	.	8g/L	.
.	.	.	.	.	.	8f#X/J	.
2GG/	Qui	.	.	.	.	1g\	.
=70-	=70-	=70-	=70-	=70-	=70-	=70-	=70-
!	!	!LO:TX:t=P:problem:kreska pseudotaktowa	!	!	!	!	!
2D/	tol-	1A\	-bis.	2d,\	-bis	.	.
!	!	!	!	!	!	!LO:TX:t=P:problem:kreska pseudotaktowa	!
!	!	!	!	!	!	!LO:TX:t=P:problem:# below	!
4D/	-lis	.	.	2.d\	Mi-	2f#X/	.
!LO:TX:t=P:problem:kreska pseudotaktowa	!	!	!	!	!	!	!
4D/	pec-	.	.	.	.	.	.
2.E\	-ca-	00r	.	.	.	1g\,	-bis.
.	.	.	.	4c/	-ſe-	.	.
.	.	.	.	1c\	-re-	.	.
!LO:TX:t=P:problem:kreska pseudotaktowa	!	!	!	!	!	!	!
4C/	-ta	.	.	.	.	.	.
=71-	=71-	=71-	=71-	=71-	=71-	=71-	=71-
!	!	!	!	!	!	!LO:TX:t=P:problem:kreska pseudotaktowa	!
4G\	mun-	.	.	.	.	1d/	Qui
4D/	.	.	.	.	.	.	.
!	!	!	!	!LO:TX:t=P:problem:kreska pseudotaktowa	!	!	!
1G\	.	.	.	2B/	-re	.	.
!	!	!	!	!LO:SIC:v:t=custos d	!	!	!
.	.	.	.	2A/	.	2a\	tol-
!	!	!	!	!LO:LB:g=original	!	!	!
!LO:TX:t=P:problem:# above	!	!	!	!	!	!	!
2F#X\	.	.	.	(4d\	no-	4a\	-lis
!	!	!	!	!	!	!LO:TX:t=P:problem:kreska pseudotaktowa	!
.	.	.	.	4c/)	.	4a\	pec-
=72-	=72-	=72-	=72-	=72-	=72-	=72-	=72-
!LO:TX:t=P:problem:kreska pseudotaktowa	!	!	!	!	!	!	!
!LO:SIC:v:t=custos AA	!	!	!	!	!	!	!
1G\	-di	.	.	(4B/	-bis.	2b\	-ca-
.	.	.	.	4A,/)	.	.	.
!	!	!	!	!	!	!LO:TX:t=P:problem:kreska pseudotaktowa	!
.	.	.	.	1g\	Qui	2g/	-ta
!LO:LB:g=original	!	!	!	!	!	!	!
!LO:TX:t=P:problem:kreska pseudotaktowa	!	!	!	!	!	!	!
1r	.	1D/	Qui	.	.	4a\	mun-
.	.	.	.	.	.	4d/	.
!	!	!	!	!LO:TX:t=P:problem:kreska pseudotaktowa	!	!	!
.	.	.	.	2f\	.	1dd\	.
=73-	=73-	=73-	=73-	=73-	=73-	=73-	=73-
1AA/	Qui	2A/	tol-	4e\	tol-	.	.
.	.	.	.	4e\	-lis	.	.
!	!	!	!	!	!	!LO:TX:t=P:problem:kreska pseudotaktowa	!
.	.	4A/	-lis	2.a\	pec-	2cc\	.
!	!	!LO:TX:t=P:problem:kreska pseudotaktowa	!	!	!	!	!
.	.	4A/	pec-	.	.	.	.
!	!	!	!	!	!	!LO:TX:b:t=a	!
!	!	!	!	!	!	!LO:SIC:v:t=custos a	!
2E\	tol-	2.B\	-ca-	.	.	1ee\	.
.	.	.	.	4g\	-ca-	.	.
!	!	!	!	!LO:TX:t=P:problem:kreska pseudotaktowa	!	!	!
4E\	-lis	.	.	2g\	-ta	.	.
!LO:TX:t=P:problem:kreska pseudotaktowa	!	!	!	!	!	!	!
4E\	pec-	4G,/	-ta	.	.	.	.
!	!	!	!	!	!	!LO:LB:g=original	!
=74-	=74-	=74-	=74-	=74-	=74-	=74-	=74-
!	!	!	!	!	!	!LO:TX:t=P:problem:kreska pseudotaktowa	!
2F#X\	-ca-	4A/	mun-	1f#X\	mun-	1a\	-di
.	.	4D/	.	.	.	.	.
2D/	-ta	1d\	.	.	.	.	.
4A\	mun-	.	.	1.e\	-di	0r	.
4E\	.	.	.	.	.	.	.
!	!	!LO:TX:t=P:problem:kreska pseudotaktowa	!	!	!	!	!
1A\	.	2c\	.	.	.	.	.
=75-	=75-	=75-	=75-	=75-	=75-	=75-	=75-
*	*	*lig	*	*	*	*	*
.	.	1B\	.	.	.	.	.
!LO:TX:t=P:problem:kreska pseudotaktowa	!	!	!	!LO:TX:t=P:problem:kreska pseudotaktowa	!	!	!
2G\	.	.	.	[y2e\	ſuſ-	.	.
*	*	*col	*	*	*	*	*
!	!	!	!	!LO:N:xstem:cue	!	!	!
1F\	.	2.A\	.	4e\]	.	2r	.
.	.	.	.	4e\	-ci-	.	.
.	.	.	.	2d\	-pe	2.a\	ſuſ-
!	!	!	!	!LO:TX:t=P:problem:kreska pseudotaktowa	!	!	!
*	*	*Xlig	*	*	*	*	*
!	!	!LO:TX:t=P:problem:kreska pseudotaktowa	!	!	!	!	!
.	.	4B\	.	.	.	.	.
*	*	*Xcol	*	*	*	*	*
=76-	=76-	=76-	=76-	=76-	=76-	=76-	=76-
!LO:TX:t=P:problem:kreska pseudotaktowa	!	!	!	!	!	!	!
1E\	-di	4c\	.	2c/	de-	.	.
.	.	4d\	.	.	.	4a\	-ci-
!	!	!	!	!	!	!LO:TX:t=P:problem:kreska pseudotaktowa	!
.	.	2e\	.	2B/	-pre-	2g/	-pe
00r	.	2A,/	-di	4c/	-ca-	1.cc\	de-
.	.	.	.	4A/	-ti-	.	.
!	!	!LO:TX:t=P:problem:kreska pseudotaktowa	!	!	!	!	!
.	.	[y2A/	ſuſ-	4c/	-o-	.	.
!	!	!	!	!LO:TX:t=P:problem:kreska pseudotaktowa	!	!	!
.	.	.	.	4d\	.	.	.
=77-	=77-	=77-	=77-	=77-	=77-	=77-	=77-
!	!	!LO:N:xstem:cue	!	!	!	!	!
.	.	4A\]	.	4e\	.	.	.
.	.	4A/	-ci-	4f\	.	.	.
!	!	!	!	!	!	!LO:TX:t=P:problem:kreska pseudotaktowa	!
.	.	2G/	-pe	4g\	.	2b\	-pre-
!	!	!	!	!LO:TX:t=P:problem:kreska pseudotaktowa	!	!	!
.	.	.	.	4f\	.	.	.
.	.	2.c\	de-	2.e\	.	2.a\	-ca-
.	.	4B\	-pre-	4d\	.	4g/	-ti-
=78-	=78-	=78-	=78-	=78-	=78-	=78-	=78-
.	.	2A/	-ca-	2c/	.	2f/	-o-
!	!	!LO:TX:t=P:problem:kreska pseudotaktowa	!	!LO:TX:t=P:problem:kreska pseudotaktowa	!	!LO:TX:t=P:problem:kreska pseudotaktowa	!
.	.	2G/	-ti-	2B/	-nem	2e/	-nem
0r	.	2A/	-o-	2c/	no-	2f/	no-
.	.	2.G/	.	2.B/	.	2.e/	.
=79-	=79-	=79-	=79-	=79-	=79-	=79-	=79-
!LO:TX:t=P:problem:kreska pseudotaktowa	!	!	!	!	!	!	!
.	.	.	.	.	.	.	.
.	.	4F/	.	4A/	.	4d/	.
.	.	4F/	-nem	4A/	.	1d/	.
.	.	8E/L	.	8G/L	.	.	.
!	!	!LO:TX:t=P:problem:kreska pseudotaktowa	!	!	!	!	!
!	!	!LO:SIC:v:t=custos E	!	!LO:TX:t=P:problem:kreska pseudotaktowa	!	!	!
.	.	8D/J	.	8F/J	.	.	.
!	!	!LO:LB:g=original	!	!	!	!	!
2r	.	1E/	no-	1G/	.	.	.
!	!	!	!	!	!	!LO:TX:t=P:problem:kreska pseudotaktowa	!
!	!	!	!	!	!	!LO:SIC:v:s=2c#	!
2G\	Qui	.	.	.	.	2c/	.
=80-	=80-	=80-	=80-	=80-	=80-	=80-	=80-
!	!	!	!	!LO:TX:t=P:problem:kreska pseudotaktowa	!	!LO:TX:t=P:problem:kreska pseudotaktowa	!
(<2G\	ſe-	2D,/	-ſtram.	1A/	.	1d/	-ſtram
!LO:TX:t=P:problem:kreska pseudotaktowa	!	!	!	!	!	!	!
!LO:TX:t=P:problem:# above	!	!LO:TX:t=P:problem:kreska pseudotaktowa	!	!	!	!	!
2F#X\)	.	2d\	Qui	.	.	.	.
2G\	-des	4d\	ſe-	2G/	.	1r	.
.	.	4c\	.	.	.	.	.
!LO:TX:t=P:problem:kreska pseudotaktowa	!	!	!	!	!	!	!
2G\	ad	4B\	.	2.g\	.	.	.
.	.	8c\L	.	.	.	.	.
!	!	!LO:TX:t=P:problem:kreska pseudotaktowa	!	!	!	!	!
.	.	8d\J	.	.	.	.	.
=81-	=81-	=81-	=81-	=81-	=81-	=81-	=81-
2C/	dex-	4e\	.	.	.	2g/	ad
.	.	4d\	.	4f\	.	.	.
!	!	!	!	!LO:TX:t=P:problem:kreska pseudotaktowa	!	!	!
!	!	!	!	!LO:SIC:v:t=custos a	!	!	!
4C/	-te-	2.c\	.	2e\	-ſtram.	4cc\	dex-
!LO:TX:t=P:problem:kreska pseudotaktowa	!	!	!	!	!	!LO:TX:t=P:problem:kreska pseudotaktowa	!
4C/	-ram	.	.	.	.	4b\	.
!	!	!	!	!LO:LB:g=original	!	!	!
2.F\	Pa-	.	.	4a\	Qui	2.a\	.
.	.	4B\	.	4g\	.	.	.
.	.	4A/	.	1f\	ſe-	.	.
4E\	.	8B\L	.	.	.	4g/	.
!	!	!LO:TX:t=P:problem:kreska pseudotaktowa	!	!	!	!	!
.	.	8c\J	.	.	.	.	.
=82-	=82-	=82-	=82-	=82-	=82-	=82-	=82-
4D/	.	1d\	.	.	.	4f/	.
4E\	.	.	.	.	.	4g/	.
4F\	.	.	.	4f\	-des	4a\	.
!LO:TX:t=P:problem:kreska pseudotaktowa	!	!	!	!LO:TX:t=P:problem:kreska pseudotaktowa	!	!LO:TX:t=P:problem:kreska pseudotaktowa	!
4G\	.	.	.	4f\	.	4b\	.
1A\	.	2.c\	-des	2e\	ad	2cc\	.
.	.	.	.	4e\	dex-	4cc\	-te-
!	!	!	!	!	!	!LO:TX:t=P:problem:kreska pseudotaktowa	!
.	.	4d\	ad	4f\	-te-	4cc\	-ram
=83-	=83-	=83-	=83-	=83-	=83-	=83-	=83-
!LO:TX:t=P:problem:kreska pseudotaktowa	!	!	!	!	!	!	!
0G\	.	2e\	dex-	0g\	-ra(m)	2b\	Pa-
.	.	4d\	-te-	.	.	1cc\	.
!	!	!LO:TX:t=P:problem:kreska pseudotaktowa	!	!	!	!	!
.	.	4c\	-ram	.	.	.	.
.	.	1d\	Pa-	.	.	.	.
!	!	!	!	!	!	!LO:TX:t=P:problem:kreska pseudotaktowa	!
.	.	.	.	.	.	2b\	.
=84-	=84-	=84-	=84-	=84-	=84-	=84-	=84-
2C,/	-tris	2e\	-tris	2g,\	.	2cc,\	-tris
1C/	Mi-	1c\	Mi-	1e\	Pa-	1g\	mi-
!LO:TX:t=P:problem:kreska pseudotaktowa	!	!	!	!	!	!	!
!LO:SIC:v:t=custos C	!	!LO:TX:t=P:problem:kreska pseudotaktowa	!	!LO:TX:t=P:problem:kreska pseudotaktowa	!	!LO:TX:t=P:problem:kreska pseudotaktowa	!
2AA/	-ſe-	2c\	-ſe-	2f\	-tris	2a\	-ſe-
!LO:PB:g=original	!	!	!	!	!	!	!
=85-	=85-	=85-	=85-	=85-	=85-	=85-	=85-
2C/	-re-	2c\	-re-	2e\	Mi-	2g/	-re-
!	!	!	!	!	!	!LO:TX:t=P:problem:kreska pseudotaktowa	!
!	!	!	!	!	!	!LO:SIC:v:t=custos g	!
2D/	-re	2A/	re	2d\	-ſe-	2f/	-re
!	!	!	!	!	!	!LO:LB:g=original	!
*lig	*	*lig	*	*	*	*	*
1GG/	no-	1B-X\	no-	4e\	-re-	2.g/	no-
.	.	.	.	4d\	-re	.	.
.	.	.	.	1d\	.	.	.
.	.	.	.	.	.	2f/	.
=86-	=86-	=86-	=86-	=86-	=86-	=86-	=86-
!LO:TX:t=P:problem:kreska pseudotaktowa	!	!	!	!	!	!	!
1AA/	.	1A\	.	.	.	.	.
.	.	.	.	.	.	8e/L	.
.	.	.	.	.	.	8d/J	.
.	.	.	.	2c#X/	no-	2e/	.
!	!	!	!	!LO:TX:t=P:problem:kreska pseudotaktowa	!	!	!
!	!	!	!	!LO:TX:t=P:problem:# below	!	!LO:TX:t=P:problem:kreska pseudotaktowa	!
*Xlig	*	*Xlig	*	*	*	*	*
!LO:TX:t=P:problem:kreska pseudotaktowa	!	!LO:TX:t=P:problem:kreska pseudotaktowa	!	!	!	!LO:TX:t=P:problem:kreska pseudotaktowa	!
1D\,	-bis	1A\,	-bis.	2d,\	-bis.	1f#X/	-bis
.	.	.	.	1d\	Quo-	.	.
=87-	=87-	=87-	=87-	=87-	=87-	=87-	=87-
1.G\	Quo-	1.B\	Quo-	.	.	0r	.
!	!	!	!	!LO:TX:t=P:problem:kreska pseudotaktowa	!	!	!
.	.	.	.	2d\	ni-	.	.
.	.	.	.	1.e\	-am	.	.
2G\	-ni-	2B\	-ni-	.	.	.	.
=88-	=88-	=88-	=88-	=88-	=88-	=88-	=88-
!	!	!LO:TX:t=P:problem:kreska pseudotaktowa	!	!	!	!LO:TX:t=P:problem:kreska pseudotaktowa	!
1A\	-am	1c\	-am	.	.	1r	.
.	.	.	.	2c/	tu	.	.
!	!	!	!	!LO:TX:t=P:problem:kreska pseudotaktowa	!	!	!
2F#X\	Tu	2A/	tu	1d\	ſo-	2r	.
1G\	ſo-	1B\	ſo-	.	.	1g\	Quo-
=89-	=89-	=89-	=89-	=89-	=89-	=89-	=89-
.	.	.	.	2B/	-lus	.	.
!LO:TX:t=P:problem:kreska pseudotaktowa	!	!LO:TX:t=P:problem:kreska pseudotaktowa	!	!	!	!LO:TX:t=P:problem:kreska pseudotaktowa	!
2E\	-lus	2c\	-lus	2e\	tu	2g/	-ni-
2F\	San-	2A/	San-	2c/	ſo-	2a\	-am
!	!	!	!	!LO:TX:t=P:problem:kreska pseudotaktowa	!	!	!
2D/	.	2B\	.	2d\	-lus	2f/	tu
=90-	=90-	=90-	=90-	=90-	=90-	=90-	=90-
!	!	!LO:SIC:v:t=custos c	!	!	!	!	!
2E\	.	2G/	.	2B/	San-	2g/	ſo-
!	!	!LO:LB:g=original	!	!	!	!	!
!LO:TX:t=P:problem:kreska pseudotaktowa	!	!	!	!	!	!LO:TX:t=P:problem:kreska pseudotaktowa	!
2C/	.	4c\	.	2e\	.	2e/	-lus
!	!	!LO:TX:t=P:problem:kreska pseudotaktowa	!	!	!	!	!
.	.	4B\	.	.	.	.	.
*	*	*lig	*	*	*	*	*
2.D/	.	1A\	.	4d\	.	4f/	San-
.	.	.	.	4e\	.	4g/	.
.	.	.	.	4f\	.	1a\	.
!	!	!	!	!LO:TX:t=P:problem:kreska pseudotaktowa	!	!	!
4C/	.	.	.	[4d\	.	.	.
=91-	=91-	=91-	=91-	=91-	=91-	=91-	=91-
4BB/	.	1B\	.	4d\]	.	.	.
4AA/	.	.	.	4c/	.	.	.
!	!	!	!	!	!	!LO:TX:t=P:problem:# below	!
2BB/	.	.	.	1d\	.	2g#X/	.
!	!	!	!	!	!	!LO:TX:t=P:problem:kreska pseudotaktowa	!
!LO:TX:t=P:problem:kreska pseudotaktowa	!	!	!	!	!	!	!
*	*	*Xlig	*	*	*	*	*
1AA/,	-ctus.	2E/	-ct(us).	.	.	0a\,	-ct(us).
!	!	!	!	!LO:TX:t=P:problem:kreska pseudotaktowa	!	!	!
!	!	!	!	!LO:TX:t=P:problem:# below	!	!	!
!	!	!LO:TX:t=P:problem:kreska pseudotaktowa	!	!LO:SIC:v:t=custos f	!	!	!
.	.	2A/	Tu	2c#X/	.	.	.
!	!	!	!	!LO:LB:g=original	!	!	!
=92-	=92-	=92-	=92-	=92-	=92-	=92-	=92-
1D\	Tu	4D/	ſo-	1f\	.	.	.
.	.	4E/	.	.	.	.	.
.	.	4F/	.	.	.	.	.
.	.	4G/	.	.	.	.	.
*	*	*lig	*	*	*	*	*
!	!	!	!	!	!	!LO:TX:t=P:problem:kreska pseudotaktowa	!
4AA/	So-	1A\	.	1.e\	-ctus	1cc\	Tu
4BB/	.	.	.	.	.	.	.
4C/	.	.	.	.	.	.	.
!LO:TX:t=P:problem:kreska pseudotaktowa	!	!	!	!	!	!	!
4AA/	.	.	.	.	.	.	.
=93-	=93-	=93-	=93-	=93-	=93-	=93-	=93-
4E\	.	1.B\	.	.	.	4g/	So-
4F\	.	.	.	.	.	4a\	.
(1G\	.	.	.	2g\	Tu	4b\	.
.	.	.	.	.	.	4cc\	.
.	.	.	.	4d\	So-	1dd\	.
.	.	.	.	4e\	.	.	.
!	!	!	!	!	!	!LO:TX:t=P:problem:kreska pseudotaktowa	!
!	!	!	!	!LO:TX:t=P:problem:kreska pseudotaktowa	!	!LO:TX:t=P:problem:+ nad kreską taktową	!
*	*	*Xlig	*	*	*	*	*
!LO:TX:t=P:problem:+ nad 1F	!	!LO:TX:t=P:problem:kreska pseudotaktowa	!	!	!	!	!
1F\)	.	[y2A/	.	4f\	.	.	.
!	!	!	!	!LO:TX:t=P:problem:+ między 4g i 1a	!	!	!
.	.	.	.	4g\	.	.	.
=94-	=94-	=94-	=94-	=94-	=94-	=94-	=94-
!	!	!LO:N:xstem:cue	!	!	!	!	!
.	.	4A\]	.	2a\	-l(us)	2dd\	-lus
.	.	4B\	.	.	.	.	.
!LO:TX:t=P:problem:kreska pseudotaktowa	!	!	!	!LO:TX:t=P:problem:kreska pseudotaktowa	!	!	!
2E\	-lus	4c\	.	2g\	.	1cc\	Do-
!	!	!LO:TX:t=P:problem:kreska pseudotaktowa	!	!	!	!	!
.	.	4c\	-lus	.	.	.	.
!	!	!	!	!LO:TX:t=P:problem:t. 94-97 poprawiony tekst	!	!	!
2.D/	Do-	2.d\	Do-	2.f\	Do-	.	.
!	!	!	!	!	!	!LO:TX:t=P:problem:kreska pseudotaktowa	!
.	.	.	.	.	.	2b\	-mi-
4D/	-mi-	4d\	-mi-	4f\	-mi-	.	.
=95-	=95-	=95-	=95-	=95-	=95-	=95-	=95-
!LO:TX:t=P:problem:kreska pseudotaktowa	!	!	!	!	!	!	!
1C/	-nus	2G,/	-n(us)	2e,\	-n(us)	2cc,\	-n(us).
!	!	!LO:TX:t=P:problem:kreska pseudotaktowa	!	!LO:TX:t=P:problem:kreska pseudotaktowa	!	!	!
.	.	2c\	Tu	2e\	Tu	2g/	Tu
!	!	!	!	!	!	!LO:TX:t=P:problem:kreska pseudotaktowa	!
00r	.	1F/	ſo-	1f\	So-	1a\	So-
=96-	=96-	=96-	=96-	=96-	=96-	=96-	=96-
.	.	2G/	-lus	2e\	-l(us)	2g/	-lus
!	!	!LO:TX:t=P:problem:kreska pseudotaktowa	!	!LO:SIC:v:s=2c	!	!	!
.	.	2A/	Al-	2c#X/	Al-	2f/	Al-
.	.	2.B-X\	-tiſ-	2.d\	-tiſ-	2f/	-tiſ-
!	!	!	!	!	!	!LO:TX:t=P:problem:kreska pseudotaktowa	!
.	.	.	.	.	.	2g/	-si-
.	.	4B-\	-si-	4d\	-si-	.	.
=97-	=97-	=97-	=97-	=97-	=97-	=97-	=97-
!	!	!	!	!LO:TX:t=P:problem:kreska pseudotaktowa	!	!	!
!	!	!	!	!LO:N:acc=-	!	!LO:SIC:v:t=custos cc	!
.	.	2A,/	-m(us)	1cn\	-mus.	2e/	-mus
!	!	!	!	!	!	!LO:LB:g=original	!
!	!	!LO:TX:t=P:problem:kreska pseudotaktowa	!	!	!	!	!
.	.	[y2A/	Je-	.	.	2.cc\	Je-
!	!	!LO:N:xstem:cue	!	!	!	!	!
0r	.	4A\]	.	2r	.	.	.
.	.	4G/	.	.	.	4b\	.
.	.	4E/	.	2.e\	Je-	4g/	.
!	!	!	!	!	!	!LO:TX:t=P:problem:kreska pseudotaktowa	!
.	.	4F/	.	.	.	4a\	.
=98-	=98-	=98-	=98-	=98-	=98-	=98-	=98-
!LO:TX:t=P:problem:kreska pseudotaktowa	!	!	!	!	!	!	!
!LO:SIC:v:t=custos D	!	!	!	!	!	!	!
.	.	1.G/	.	.	.	1.b\	.
.	.	.	.	4d\	.	.	.
.	.	.	.	4B/	.	.	.
!	!	!	!	!LO:TX:t=P:problem:kreska pseudotaktowa	!	!	!
.	.	.	.	4c/	.	.	.
!LO:LB:g=original	!	!	!	!	!	!	!
2r	.	.	.	4d\	.	.	.
.	.	.	.	4e\	.	.	.
2.D/	Je-	4F/	.	2.f\	.	4a\	.
!	!	!LO:TX:t=P:problem:kreska pseudotaktowa	!	!	!	!LO:TX:t=P:problem:kreska pseudotaktowa	!
.	.	4E/	.	.	.	4g/	.
=99-	=99-	=99-	=99-	=99-	=99-	=99-	=99-
.	.	4F/	.	.	.	4a\	.
4C/	.	4G/	.	4e\	.	4b\	.
4AA/	.	2.A/	.	4c/	.	2.cc\	.
!LO:TX:t=P:problem:kreska pseudotaktowa	!	!	!	!LO:TX:t=P:problem:kreska pseudotaktowa	!	!	!
4BB/	.	.	.	4d\	.	.	.
1C/	.	.	.	1e\	-ſu	.	.
.	.	4G/	.	.	.	4b\	.
.	.	4E/	.	.	.	4g/	.
!	!	!LO:TX:t=P:problem:kreska pseudotaktowa	!	!	!	!	!
!	!	!LO:SIC:v:t=custos G	!	!	!	!LO:TX:t=P:problem:kreska pseudotaktowa	!
.	.	4F/	.	.	.	4a\	.
!	!	!LO:LB:g=original	!	!	!	!	!
=100-	=100-	=100-	=100-	=100-	=100-	=100-	=100-
2GG/	.	2G/	.	1d\	.	2b-X\	.
!	!	!LO:TX:t=P:problem:kreska pseudotaktowa	!	!	!	!	!
2FF#X/	-ſu	2A/	.	.	.	2a\	.
0GG/	Chri-	2.B-X\	-ſu	0d\	Chri-	2.g/	.
!	!	!	!	!	!	!LO:TX:t=P:problem:kreska pseudotaktowa	!
.	.	4A/	.	.	.	4a\	-ſu
=101-	=101-	=101-	=101-	=101-	=101-	=101-	=101-
.	.	1G/	Chri-	.	.	1b-X\	Chri-
!LO:TX:t=P:problem:kreska pseudotaktowa	!	!LO:TX:t=P:problem:kreska pseudotaktowa	!	!LO:TX:t=P:problem:kreska pseudotaktowa	!	!	!
1D\	-ſte	1F#X/	-ſte.	1d\	-ſte.	2a,\	-ſte.
!	!	!	!	!	!	!LO:TX:t=P:problem:kreska pseudotaktowa	!
.	.	.	.	.	.	2a\	Cum
=102-	=102-	=102-	=102-	=102-	=102-	=102-	=102-
00r	.	00r	.	2r	.	4d/	San-
.	.	.	.	.	.	4e/	.
!	!	!	!	!LO:TX:t=P:problem:kreska pseudotaktowa	!	!	!
.	.	.	.	2d\	Cum	4f/	.
!	!	!	!	!	!	!LO:TX:t=P:problem:kreska pseudotaktowa	!
.	.	.	.	.	.	4g/	.
.	.	.	.	4A/	San-	4a\	.
.	.	.	.	4B/	.	4g/	.
.	.	.	.	4c/	.	4e/	.
!	!	!	!	!	!	!LO:TX:t=P:problem:kreska pseudotaktowa	!
.	.	.	.	4d\	.	4f/	.
=103-	=103-	=103-	=103-	=103-	=103-	=103-	=103-
!	!	!LO:TX:t=P:problem:kreska pseudotaktowa	!	!	!	!	!
.	.	.	.	4e\	.	4g/	.
!	!	!	!	!LO:SIC:v:t=custos g	!	!	!
.	.	.	.	4f\	.	4a\	.
!	!	!	!	!LO:LB:g=original	!	!	!
!	!	!	!	!LO:TX:t=P:problem:kreska pseudotaktowa	!	!	!
.	.	.	.	[y2g\	.	4b\	.
!	!	!	!	!	!	!LO:TX:t=P:problem:kreska pseudotaktowa	!
.	.	.	.	.	.	4cc\	.
!	!	!	!	!LO:N:xstem:cue	!	!	!
.	.	.	.	4g\]	.	4dd\	.
.	.	.	.	4f\	.	4a\	.
.	.	.	.	4f\	.	1dd\	.
.	.	.	.	8e\L	.	.	.
!	!	!	!	!LO:TX:t=P:problem:kreska pseudotaktowa	!	!	!
.	.	.	.	8d\J	.	.	.
=104-	=104-	=104-	=104-	=104-	=104-	=104-	=104-
!LO:TX:t=P:problem:kreska pseudotaktowa	!	!	!	!	!	!	!
0r	.	1A\	In	4e\	.	.	.
.	.	.	.	4A/	-cto	.	.
*	*	*	*	*lig	*	*	*
!	!	!	!	!	!	!LO:TX:t=P:problem:kreska pseudotaktowa	!
.	.	.	.	1a\	San-	2cc\	-cto
*	*	*	*	*	*	*lig	*
.	.	2B\	glo-	.	.	1b\	Spi-
.	.	4B\	-ri-	1g\	.	.	.
.	.	4G/	-a	.	.	.	.
!	!	!LO:TX:t=P:problem:kreska pseudotaktowa	!	!	!	!	!
*	*	*	*	*Xlig	*	*	*
=105-	=105-	=105-	=105-	=105-	=105-	=105-	=105-
*	*	*	*	*	*	*col	*
1D\	in	1d\	De-	.	.	2.a\	.
.	.	.	.	2f\	-cto	.	.
!	!	!	!	!LO:TX:t=P:problem:kreska pseudotaktowa	!	!	!
*	*	*	*	*	*	*Xlig	*
!	!	!	!	!	!	!LO:TX:t=P:problem:kreska pseudotaktowa	!
.	.	.	.	.	.	4a\	-ri-
*	*	*	*	*	*	*Xcol	*
2E\	glo-	2G/	-i	2.e\	Spi-	0g\	-tu
4E\	-ri-	1c\	Pa-	.	.	.	.
!LO:TX:t=P:problem:kreska pseudotaktowa	!	!	!	!	!	!	!
4C/	-a	.	.	4e\	-ri-	.	.
!	!	!	!	!	!	!LO:LB:g=original	!
=106-	=106-	=106-	=106-	=106-	=106-	=106-	=106-
!	!	!	!	!	!	!LO:TX:t=P:problem:kreska pseudotaktowa	!
!	!	!	!	!	!	!LO:SIC:v:t=custos a	!
1G\	De-	.	.	2d\	-tu	.	.
!	!	!LO:TX:t=P:problem:kreska pseudotaktowa	!	!LO:TX:t=P:problem:kreska pseudotaktowa	!	!	!
.	.	2B\	.	2g\	in	.	.
2D/	-i	2A/	.	2f\	glo-	0r	.
*	*	*lig	*	*	*	*	*
4F\	Pa-	1d\	.	4f\	-ri-	.	.
!LO:TX:t=P:problem:kreska pseudotaktowa	!	!	!	!	!	!	!
4G\	.	.	.	4f\	-a	.	.
=107-	=107-	=107-	=107-	=107-	=107-	=107-	=107-
!	!	!	!	!	!	!LO:TX:t=P:problem:kreska pseudotaktowa	!
2.A\	.	.	.	1.e\	De-	.	.
.	.	1c\	.	.	.	.	.
8G\L	.	.	.	.	.	.	.
8F\J	.	.	.	.	.	.	.
4E\	.	.	.	.	.	1r	.
4F\	.	.	.	.	.	.	.
*	*	*Xlig	*	*	*	*	*
1G\	.	2B\	.	1d\	i	.	.
=108-	=108-	=108-	=108-	=108-	=108-	=108-	=108-
!	!	!LO:TX:t=P:problem:kreska pseudotaktowa	!	!	!	!	!
.	.	1A\	-tris	.	.	1a\	in
!LO:TX:t=P:problem:kreska pseudotaktowa	!	!	!	!LO:TX:t=P:problem:kreska pseudotaktowa	!	!	!
2F\	.	.	.	[y2a\	Pa-	.	.
!	!	!	!	!LO:N:xstem:cue	!	!	!
1E\	.	0r	.	4a\]	.	2b\	glo-
.	.	.	.	4g\	.	.	.
.	.	.	.	1g\	.	4b\	-ri-
!	!	!	!	!	!	!LO:TX:t=P:problem:kreska pseudotaktowa	!
.	.	.	.	.	.	4g/	-a
=109-	=109-	=109-	=109-	=109-	=109-	=109-	=109-
!	!	!LO:TX:t=P:problem:kreska pseudotaktowa	!	!	!	!	!
2D,/	-tris,	.	.	.	.	1dd\	De-
!LO:TX:t=P:problem:kreska pseudotaktowa	!	!	!	!LO:TX:t=P:problem:kreska pseudotaktowa	!	!	!
2D/	in	.	.	2f\	.	.	.
2E\	glo-	1r	.	1e\	.	2g/	-i
4E\	-ri-	.	.	.	.	1cc\	Pa-
4C/	-a	.	.	.	.	.	.
=110-	=110-	=110-	=110-	=110-	=110-	=110-	=110-
1G\	De-	2r	.	4d\	.	.	.
.	.	.	.	4c/	.	.	.
!	!	!	!	!	!	!LO:TX:t=P:problem:kreska pseudotaktowa	!
.	.	2G/	in	4d\	.	2b\	.
!	!	!	!	!LO:TX:t=P:problem:kreska pseudotaktowa	!	!	!
.	.	.	.	4e\	.	.	.
!LO:TX:t=P:problem:kreska pseudotaktowa	!	!	!	!	!	!	!
1D\	-i	2A/	glo-	1.f\	.	1.a\	.
.	.	4A/	-ri-	.	.	.	.
!	!	!LO:TX:t=P:problem:kreska pseudotaktowa	!	!	!	!	!
.	.	4F/	-a	.	.	.	.
=111-	=111-	=111-	=111-	=111-	=111-	=111-	=111-
00r	.	2c\	De-	.	.	.	.
!	!	!	!	!	!	!LO:TX:t=P:problem:kreska pseudotaktowa	!
.	.	2c\	-i	2e,\	-tris.	2g/	.
.	.	4G/	Pa-	4g\	A-	1b-X\	.
.	.	4A/	.	4f\	.	.	.
.	.	4B-X\	.	4d\	.	.	.
!	!	!LO:TX:t=P:problem:kreska pseudotaktowa	!	!LO:TX:t=P:problem:kreska pseudotaktowa	!	!	!
.	.	4c\	.	4e\	.	.	.
=112-	=112-	=112-	=112-	=112-	=112-	=112-	=112-
.	.	4d\	.	4f\	.	1a\,	-tris
.	.	4c\	.	4e\	.	.	.
.	.	4A/	.	4c/	.	.	.
!	!	!LO:TX:t=P:problem:kreska pseudotaktowa	!	!LO:TX:t=P:problem:kreska pseudotaktowa	!	!	!
.	.	4B\	.	4d\	.	.	.
!	!	!	!	!	!	!LO:TX:t=P:problem:kreska pseudotaktowa	!
.	.	4c\	.	4e\	.	1g\	A-
.	.	4B\	.	4d\	.	.	.
.	.	4G/	.	4B/	.	.	.
!	!	!LO:TX:t=P:problem:kreska pseudotaktowa	!	!	!	!	!
!	!	!LO:SIC:v:t=custos B	!	!	!	!	!
.	.	4A/	.	4c/	.	.	.
!	!	!LO:LB:g=original	!	!	!	!	!
=113-	=113-	=113-	=113-	=113-	=113-	=113-	=113-
!LO:TX:t=P:problem:kreska pseudotaktowa	!	!	!	!	!	!	!
!LO:SIC:v:t=custos AA	!	!	!	!	!	!	!
*	*	*	*	*	*	*lig	*
1r	.	4B-X\	.	1.d\	.	1f/	.
.	.	4A/	.	.	.	.	.
.	.	4F/	.	.	.	.	.
!	!	!LO:TX:t=P:problem:kreska pseudotaktowa	!	!	!	!	!
.	.	4G/	.	.	.	.	.
2r	.	4A/	.	.	.	1e/	.
.	.	4E/	.	.	.	.	.
!LO:LB:g=original	!	!	!	!	!	!	!
2AA/	in	2.A/	.	2c/	-men	.	.
!	!	!	!	!LO:LB:g=original	!	!	!
!	!	!	!	!LO:TX:t=P:problem:kreska pseudotaktowa	!	!	!
!LO:TX:t=P:problem:kreska pseudotaktowa	!	!	!	!LO:SIC:v:t=custos B	!	!	!
*	*	*	*	*	*	*Xlig	*
=114-	=114-	=114-	=114-	=114-	=114-	=114-	=114-
*	*	*	*	*lig	*	*	*
2BB/	glo-	.	.	1B/	A-	2d,/	-men
.	.	4G/	.	.	.	.	.
!	!	!	!	!	!	!LO:TX:t=P:problem:kreska pseudotaktowa	!
4BB/	-ri-	1G/	.	.	.	2g\	in
4GG/	-a	.	.	.	.	.	.
!LO:TX:t=P:problem:kreska pseudotaktowa	!	!	!	!	!	!	!
1D\	De-	.	.	1d\	.	2a\	glo-
.	.	2F/	.	.	.	4a\	-ri-
.	.	.	.	.	.	4f/	-a
!	!	!LO:TX:t=P:problem:kreska pseudotaktowa	!	!	!	!LO:TX:t=P:problem:kreska pseudotaktowa	!
*	*	*	*	*Xlig	*	*	*
=115-	=115-	=115-	=115-	=115-	=115-	=115-	=115-
!	!	!	!	!LO:TX:t=P:problem:kreska pseudotaktowa	!	!	!
2AA/	-i	2A,/	-tris.	1e\	-men	2cc\	De-
*lig	*	*	*	*	*	*	*
!	!	!	!	!	!	!LO:TX:t=P:problem:kreska pseudotaktowa	!
1A\	Pa-	2A/	in	.	.	2cc\	-i
.	.	2B\	glo-	1r	.	1.b\	Pa-
1G\	.	4B\	-ri-	.	.	.	.
.	.	4G/	-a	.	.	.	.
!	!	!LO:TX:t=P:problem:kreska pseudotaktowa	!	!	!	!	!
*Xlig	*	*	*	*	*	*	*
=116-	=116-	=116-	=116-	=116-	=116-	=116-	=116-
.	.	1d\	De-	2r	.	.	.
!LO:TX:t=P:problem:kreska pseudotaktowa	!	!	!	!LO:TX:t=P:problem:kreska pseudotaktowa	!	!LO:TX:t=P:problem:kreska pseudotaktowa	!
2F\	.	.	.	2d\	in	2a\	.
!	!	!	!	!	!	!LO:TX:t=P:problem:kreska pseudotaktowa	!
4E\	.	2G/	-i	2e\	glo-	1g\	-tris
4D/	.	.	.	.	.	.	.
!	!	!LO:TX:t=P:problem:kreska pseudotaktowa	!	!	!	!	!
1C/	.	2c\	Pa-	4e\	-ri-	.	.
.	.	.	.	4c/	-a	.	.
=117-	=117-	=117-	=117-	=117-	=117-	=117-	=117-
.	.	2d,\	-tris.	2.g\	De-	1r	.
!LO:TX:t=P:problem:kreska pseudotaktowa	!	!	!	!	!	!	!
2BB/	.	2.d\	A-	.	.	.	.
!	!	!	!	!LO:TX:t=P:problem:kreska pseudotaktowa	!	!	!
.	.	.	.	4f\	.	.	.
*	*	*	*	*	*	*lig	*
4C/	.	.	.	4e\	.	1ee\	A-
4D/	.	4c\	.	4f\	.	.	.
*	*	*lig	*	*	*	*	*
!	!	!	!	!LO:TX:t=P:problem:kreska pseudotaktowa	!	!	!
4E\	.	1c\	.	2g\	-i	.	.
4F\	.	.	.	.	.	.	.
=118-	=118-	=118-	=118-	=118-	=118-	=118-	=118-
2G\	.	.	.	2g\	.	1dd\	.
2GG/	.	1B\	.	4g\	Pa-	.	.
.	.	.	.	4f\	.	.	.
!LO:TX:t=P:problem:kreska pseudotaktowa	!	!	!	!	!	!	!
*	*	*Xlig	*	*	*	*Xlig	*
*	*	*	*	*	*	*lig	*
4AA/	.	.	.	4e\	.	1cc\	.
4BB/	.	.	.	4d\	.	.	.
!	!	!	!	!LO:TX:t=P:problem:kreska pseudotaktowa	!	!	!
4C/	.	1A/	.	2e\	.	.	.
4D/	.	.	.	.	.	.	.
=119-	=119-	=119-	=119-	=119-	=119-	=119-	=119-
!LO:TX:t=P:problem:kreska pseudotaktowa	!	!	!	!	!	!	!
1E\	.	.	.	1e\	-tris	1b\	.
.	.	2G#X/	.	.	.	.	.
!	!	!LO:TX:t=P:problem:kreska pseudotaktowa	!	!	!	!	!
!	!	!LO:TX:t=P:problem:# below	!	!	!	!	!
*	*	*	*	*	*	*Xlig	*
!	!	!	!	!	!	!LO:TX:t=P:problem:kreska pseudotaktowa	!
!	!	!	!	!	!	!LO:SIC:v:t=custos g	!
2AA/	-tris	4A/	.	4c/	A-	1a\	-men
.	.	4B\	.	4d\	.	.	.
2A\	A-	4c\	.	4e\	.	.	.
!	!	!	!	!LO:TX:t=P:problem:kreska pseudotaktowa	!	!	!
.	.	4d\	.	4f\	.	.	.
=120-	=120-	=120-	=120-	=120-	=120-	=120-	=120-
*lig	*	*	*	*	*	*	*
!	!	!	!	!	!	!LO:TX:t=P:problem:kreska pseudotaktowa	!
1G\	.	4e\	.	4g\	.	0r	.
.	.	4d\	.	4f\	.	.	.
.	.	4B\	.	4d\	.	.	.
!	!	!LO:TX:t=P:problem:kreska pseudotaktowa	!	!LO:TX:t=P:problem:kreska pseudotaktowa	!	!	!
.	.	4c\	.	4e\	.	.	.
1F\	.	2d\	.	4f\	.	.	.
.	.	.	.	4g\	.	.	.
.	.	2A/	.	2a\	.	.	.
!	!	!	!	!LO:TX:t=P:problem:kreska pseudotaktowa	!	!	!
*Xlig	*	*	*	*	*	*	*
!	!	!	!	!	!	!LO:PB:g=original	!
=121-	=121-	=121-	=121-	=121-	=121-	=121-	=121-
!LO:TX:t=P:problem:kreska pseudotaktowa	!	!	!	!	!	!	!
*	*	*	*	*lig	*	*	*
1E\	.	2B\	.	1g\	.	4g/	A-
.	.	.	.	.	.	4a\	.
!	!	!LO:TX:t=P:problem:kreska pseudotaktowa	!	!	!	!	!
.	.	2G/	.	.	.	4b\	.
!	!	!	!	!	!	!LO:TX:t=P:problem:kreska pseudotaktowa	!
.	.	.	.	.	.	4cc\	.
!	!	!	!	!LO:TX:t=P:problem:kreska pseudotaktowa	!	!	!
4D\	.	2A,/	-men	1f\	.	4dd\	.
4E\	.	.	.	.	.	4cc\	.
4F\	.	2d\	A-	.	.	4a\	.
4G\	.	.	.	.	.	4b\	.
!LO:TX:t=P:problem:kreska pseudotaktowa	!	!	!	!	!	!LO:TX:t=P:problem:kreska pseudotaktowa	!
*	*	*	*	*Xlig	*	*	*
=122-	=122-	=122-	=122-	=122-	=122-	=122-	=122-
*	*	*lig	*	*	*	*	*
4A\	.	1c\	.	4e\	.	4cc\	.
4G\	.	.	.	4f\	.	4dd\	.
*	*	*	*	*lig	*	*	*
!	!	!	!	!	!	!LO:TX:t=P:problem:kreska pseudotaktowa	!
4E\	.	.	.	1g\	.	2ee\	.
!LO:TX:t=P:problem:kreska pseudotaktowa	!	!	!	!	!	!	!
!LO:SIC:v:t=custos G	!	!	!	!	!	!	!
4F\	.	.	.	.	.	.	.
!	!	!LO:TX:t=P:problem:kreska pseudotaktowa	!	!	!	!	!
!LO:LB:g=original	!	!LO:SIC:v:t=custos A	!	!	!	!	!
*	*	*	*	*	*	*lig	*
4G\	.	1B\	.	.	.	1dd\	.
4F\	.	.	.	.	.	.	.
4D/	.	.	.	1f\	.	.	.
4E\	.	.	.	.	.	.	.
!LO:TX:t=P:problem:kreska pseudotaktowa	!	!	!	!	!	!	!
*	*	*Xlig	*	*Xlig	*	*	*
!	!	!LO:LB:g=original	!	!	!	!	!
=123-	=123-	=123-	=123-	=123-	=123-	=123-	=123-
*	*	*lig	*	*	*	*	*
4F\	.	1A\	.	.	.	1cc\	.
4E\	.	.	.	.	.	.	.
4C/	.	.	.	1e\	.	.	.
4D/	.	.	.	.	.	.	.
!LO:TX:t=P:problem:kreska pseudotaktowa	!	!	!	!LO:TX:t=P:problem:przekreślone, synkopowane wartości pięciu kolejnych całych nut	!	!	!
*	*	*	*	*	*	*Xlig	*
!	!	!LO:TX:t=P:problem:kreska pseudotaktowa	!	!	!	!	!
*	*	*	*	*	*	*lig	*
4E\	.	1G/	.	.	.	1b\	.
4D/	.	.	.	.	.	.	.
4BB/	.	.	.	1d\	.	.	.
4C/	.	.	.	.	.	.	.
!LO:TX:t=P:problem:kreska pseudotaktowa	!	!	!	!	!	!	!
*	*	*Xlig	*	*	*	*	*
=124-	=124-	=124-	=124-	=124-	=124-	=124-	=124-
*	*	*lig	*	*	*	*	*
!	!	!	!	!	!	!LO:TX:t=P:problem:kreska pseudotaktowa	!
4D/	.	1F/	.	.	.	1a\	.
4C/	.	.	.	.	.	.	.
4AA/	.	.	.	1c\	.	.	.
4BB/	.	.	.	.	.	.	.
!LO:TX:t=P:problem:kreska pseudotaktowa	!	!	!	!	!	!	!
*	*	*	*	*	*	*Xlig	*
*	*	*	*	*	*	*lig	*
4C/	.	1E/	.	.	.	1g\	.
4BB/	.	.	.	.	.	.	.
4GG/	.	.	.	1B-X/	.	.	.
4AA/	.	.	.	.	.	.	.
!LO:TX:t=P:problem:kreska pseudotaktowa	!	!	!	!	!	!	!
*	*	*Xlig	*	*	*	*	*
=125-	=125-	=125-	=125-	=125-	=125-	=125-	=125-
4BB-X/	.	2D/	.	.	.	1f/	.
4AA/	.	.	.	.	.	.	.
4FF/	.	1d\	.	1A/,	-men.	.	.
4GG/	.	.	.	.	.	.	.
!LO:TX:t=P:problem:kreska pseudotaktowa	!	!	!	!	!	!	!
*	*	*	*	*	*	*Xlig	*
1AA/	.	.	.	.	.	1e/	.
!	!	!LO:TX:t=P:problem:kreska pseudotaktowa	!	!	!	!	!
!	!	!LO:TX:t=P:problem:# above	!	!	!	!	!
.	.	2c#X\	.	4a\	A-	.	.
!	!	!	!	!LO:TX:t=P:problem:kreska pseudotaktowa	!	!	!
.	.	.	.	4g\	.	.	.
=126-	=126-	=126-	=126-	=126-	=126-	=126-	=126-
!LO:TX:t=P:problem:kreska pseudotaktowa	!	!	!	!	!	!	!
1D\	-men	2d,\	-men	(4f\	.	2d/	-men
!	!	!	!	!LO:SIC:v:t=custos f	!	!	!
.	.	.	.	4e\)	.	.	.
!	!	!	!	!LO:PB:g=original	!	!	!
!	!	!	!	!LO:TX:t=P:problem:kreska pseudotaktowa	!	!LO:TX:t=P:problem:kreska pseudotaktowa	!
.	.	2D/	in	2f\	.	2dd\	A-
*	*	*	*	*	*	*lig	*
00r	.	2A/	glo-	4e\	.	1cc\	.
.	.	.	.	4d\	.	.	.
.	.	4A/	-ri-	4e\	.	.	.
!	!	!LO:TX:t=P:problem:kreska pseudotaktowa	!	!LO:TX:t=P:problem:kreska pseudotaktowa	!	!	!
.	.	4A/	-a	4f\	.	.	.
=127-	=127-	=127-	=127-	=127-	=127-	=127-	=127-
.	.	2.B\	De-	4g\	.	1b\	.
.	.	.	.	4f\	.	.	.
.	.	.	.	4d\	.	.	.
.	.	4G/	-i	4e\	.	.	.
!	!	!	!	!LO:TX:t=P:problem:kreska pseudotaktowa	!	!	!
*	*	*	*	*lig	*	*Xlig	*
.	.	2d\	Pa-	1f\	.	1a\	.
!	!	!LO:TX:t=P:problem:kreska pseudotaktowa	!	!	!	!	!
.	.	2A/	-tris	.	.	.	.
=128-	=128-	=128-	=128-	=128-	=128-	=128-	=128-
.	.	1c\	A-	1e\	.	2g/	.
.	.	.	.	.	.	1cc\	.
*	*	*	*	*Xlig	*	*	*
1r	.	4G/	.	2d\	.	.	.
.	.	4A/	.	.	.	.	.
.	.	4B\	.	1g\	.	2b\	-men
!	!	!LO:TX:t=P:problem:kreska pseudotaktowa	!	!	!	!	!
.	.	4c\	.	.	.	.	.
=129-	=129-	=129-	=129-	=129-	=129-	=129-	=129-
*lig	*	*	*	*	*	*	*
!	!	!	!	!	!	!LO:TX:t=P:problem:kreska pseudotaktowa	!
1D\	A-	4d\	.	.	.	1a\	.
.	.	4c\	.	.	.	.	.
!	!	!	!	!LO:TX:t=P:problem:kreska pseudotaktowa	!	!	!
.	.	4A/	.	2f\	.	.	.
.	.	4B\	.	.	.	.	.
1C/	.	4c\	.	2e\	.	2r	.
.	.	4B\	.	.	.	.	.
.	.	4c\	.	1a\	.	2a\	in
.	.	4A/	.	.	.	.	.
!	!	!LO:TX:t=P:problem:kreska pseudotaktowa	!	!	!	!	!
*Xlig	*	*	*	*	*	*	*
=130-	=130-	=130-	=130-	=130-	=130-	=130-	=130-
!LO:TX:t=P:problem:kreska pseudotaktowa	!	!LO:TX:t=P:problem:kreska pseudotaktowa	!	!	!	!	!
1BB/	.	1d\	-men	.	.	2b\	glo-
!	!	!	!	!LO:TX:t=P:problem:# below	!	!	!
.	.	.	.	2g#X\	-men	4b\	-ri-
!	!	!	!	!	!	!LO:TX:t=P:problem:kreska pseudotaktowa	!
.	.	.	.	.	.	4dd\	-a
!	!	!	!	!LO:TX:t=P:problem:kreska pseudotaktowa	!	!	!
1.AA/	.	1r	.	1a\	.	2cc\	Pa-
!	!	!	!	!	!	!LO:TX:t=P:problem:kreska pseudotaktowa	!
!	!	!	!	!	!	!LO:SIC:v:t=custos ee	!
.	.	.	.	.	.	2a\	-ris
!	!	!	!	!	!	!LO:LB:g=original	!
=131-	=131-	=131-	=131-	=131-	=131-	=131-	=131-
.	.	1B\	in	0r	.	0ee\	PA-
!LO:TX:t=P:problem:kreska pseudotaktowa	!	!	!	!	!	!	!
!LO:TX:t=P:problem:# above	!	!	!	!	!	!	!
2GG#X/	.	.	.	.	.	.	.
2AA/	-men	2c\	glo-	.	.	.	.
1A\	A-	4c\	-ri-	.	.	.	.
!	!	!LO:TX:t=P:problem:kreska pseudotaktowa	!	!	!	!	!
.	.	4A/	-a	.	.	.	.
=132-	=132-	=132-	=132-	=132-	=132-	=132-	=132-
!	!	!	!	!	!	!LO:TX:t=P:problem:kreska pseudotaktowa	!
.	.	2e\	De-	2r	.	1ee\	-tris
!LO:TX:t=P:problem:kreska pseudotaktowa	!	!	!	!LO:TX:t=P:problem:kreska pseudotaktowa	!	!	!
2G\	.	2B\	-i	2e\	in	.	.
*lig	*	*	*	*	*	*	*
1F\	.	2d\	Pa-	2f\	glo-	4a\	A-
.	.	.	.	.	.	4b\	.
!	!	!LO:TX:t=P:problem:kreska pseudotaktowa	!	!	!	!	!
.	.	2A/	.	4f\	-ri-	4cc\	.
!	!	!	!	!LO:TX:t=P:problem:kreska pseudotaktowa	!	!LO:TX:t=P:problem:kreska pseudotaktowa	!
.	.	.	.	4d\	-a	4dd\	.
=133-	=133-	=133-	=133-	=133-	=133-	=133-	=133-
1E\	.	2B\	.	2.g\	De-	4ee\	.
.	.	.	.	.	.	4dd\	.
.	.	2G/	.	.	.	4b\	.
.	.	.	.	4e\	-i	4cc\	.
!	!	!	!	!	!	!LO:TX:t=P:problem:kreska pseudotaktowa	!
*Xlig	*	*	*	*	*	*	*
!LO:SIC:v:s=2D	!	!	!	!	!	!	!
!LO:TX:t=P:problem:# below	!	!	!	!	!	!LO:N:vis=1	!
2D#X/	.	1A\	-tris.	2f\	Pa-	2dd\	.
!LO:SIC:v:s=2C#	!	!	!	!LO:TX:t=P:problem:kreska pseudotaktowa	!	!	!
2C/	.	.	.	2e\	-tris.	1ee\	-men
=134-	=134-	=134-	=134-	=134-	=134-	=134-	=134-
!	!	!	!	!	!	!LO:TX:t=P:problem:kreska pseudotaktowa	!
0D\	.	0A\	A-	0f\	A-	.	.
.	.	.	.	.	.	4dd\	A-
.	.	.	.	.	.	4cc\	.
.	.	.	.	.	.	1dd\	.
=135-	=135-	=135-	=135-	=135-	=135-	=135-	=135-
0AA/;	-men.	0A\;	-men.	0e\	-men.	0cc#X\;	-men.
=-	=-	=-	=-	=-	=-	=-	=-
*-	*-	*-	*-	*-	*-	*-	*-
!!!system-decoration: [(s1,s2,s3,s4)]
!!!RDF**kern: > = above
!!!RDF**kern: < = below
!!!EED: Leszek Kubiak
!!!EST: 2021-03-12
!!!ENC: Katarzyna Serwa
!!!END: 2021-03-01
